; generated by PrusaSlicer 2.3.1 on 2021-05-12 at 11:04:13 UTC

; 

; external perimeters extrusion width = 0.45mm
; perimeters extrusion width = 0.45mm
; infill extrusion width = 0.45mm
; solid infill extrusion width = 0.45mm
; top infill extrusion width = 0.40mm
; support material extrusion width = 0.35mm
; first layer extrusion width = 0.42mm

M73 P0 R120
M73 Q0 S121
M201 X1000 Y1000 Z200 E5000 ; sets maximum accelerations, mm/sec^2
M203 X200 Y200 Z12 E120 ; sets maximum feedrates, mm/sec
M204 P1250 R1250 T1250 ; sets acceleration (P, T) and retract acceleration (R), mm/sec^2
M205 X8.00 Y8.00 Z0.40 E4.50 ; sets the jerk limits, mm/sec
M205 S0 T0 ; sets the minimum extruding and travel feed rate, mm/sec
M107
;TYPE:Custom
M862.3 P "MK3S" ; printer model check
M862.1 P0.4 ; nozzle diameter check
M115 U3.9.3 ; tell printer latest fw version
G90 ; use absolute coordinates
M83 ; extruder relative mode
M104 S215 ; set extruder temp
M140 S60 ; set bed temp
M190 S60 ; wait for bed temp
M109 S215 ; wait for extruder temp
G28 W ; home all without mesh bed level
G80 ; mesh bed leveling
G1 Y-3.0 F1000.0 ; go outside print area
G92 E0.0
G1 X60.0 E9.0 F1000.0 ; intro line
G1 X100.0 E12.5 F1000.0 ; intro line
G92 E0.0
M221 S95

; Don't change E values below. Excessive value can damage the printer.

M907 E538 ; set extruder motor current
G21 ; set units to millimeters
G90 ; use absolute coordinates
M83 ; use relative distances for extrusion
M900 K0.05 ; Filament gcode LA 1.5
M900 K30 ; Filament gcode LA 1.0
;LAYER_CHANGE
;Z:0.2
;HEIGHT:0.2
;BEFORE_LAYER_CHANGE
G92 E0.0
;0.2


G1 E-0.80000 F2100.000
G1 Z0.400 F10800.000
;AFTER_LAYER_CHANGE
;0.2
G1 X77.326 Y138.013
G1 Z0.200
G1 E0.80000 F2100.000
M204 S1000
;TYPE:Skirt
;WIDTH:0.42
G1 F1200.000
G1 X76.551 Y137.490 E0.02931
G1 X76.051 Y136.741 E0.02825
G1 X75.865 Y135.863 E0.02813
G1 X75.865 Y118.143 E0.55559
G1 X75.953 Y117.545 E0.01894
G1 X76.188 Y116.989 E0.01894
G1 X106.418 Y78.484 E1.53491
G1 X107.623 Y77.374 E0.05138
G1 X109.045 Y76.519 E0.05201
G1 X110.046 Y76.128 E0.03369
G1 X110.836 Y75.921 E0.02560
G1 X112.504 Y75.748 E0.05259
G1 X113.645 Y75.830 E0.03587
G1 X114.499 Y75.998 E0.02727
G1 X115.586 Y76.357 E0.03592
G1 X116.400 Y76.745 E0.02825
G1 X172.945 Y109.204 E2.04426
G1 X173.450 Y109.594 E0.02000
G1 X173.945 Y110.333 E0.02790
G1 X174.134 Y111.202 E0.02790
G1 X174.135 Y135.820 E0.77186
G1 X173.951 Y136.736 E0.02931
G1 X173.428 Y137.511 E0.02931
G1 X172.668 Y138.015 E0.02860
G1 X171.774 Y138.197 E0.02860
G1 X78.242 Y138.197 E2.93263
G1 X77.385 Y138.025 E0.02743
; printing object solder_spool_holder-Body.stl id:0 copy 0
;WIPE_START
G1 F8640.000
G1 X76.551 Y137.490 E-0.22867
G1 X76.051 Y136.741 E-0.20806
G1 X75.865 Y135.863 E-0.20719
G1 X75.865 Y135.360 E-0.11608
;WIPE_END
G1 E-0.04000 F2100.000
G1 Z0.600 F10800.000
G1 X78.242 Y135.820
G1 Z0.200
G1 E0.80000 F2100.000
;TYPE:Support material
G1 F1200.000
G1 X78.242 Y118.185 E0.55293
G1 X78.996 Y118.185 E0.02365
G1 X78.996 Y135.650 E0.54761
G1 X79.750 Y135.650 E0.02365
G1 X79.750 Y118.185 E0.54761
G1 X80.505 Y118.185 E0.02365
G1 X80.505 Y135.820 E0.55293
;WIPE_START
G1 F8640.000
G1 X80.505 Y132.528 E-0.76000
;WIPE_END
G1 E-0.04000 F2100.000
G1 Z0.600 F10800.000
G1 X83.420 Y132.823
G1 Z0.200
G1 E0.80000 F2100.000
;TYPE:Support material interface
;WIDTH:0.35
G1 F1200.000
G1 X83.420 Y132.254 E0.01454
G1 X83.291 Y132.254 E0.00329
G1 X83.069 Y132.032 E0.00801
G1 X83.069 Y130.378 E0.04223
G1 X82.912 Y130.378 E0.00399
G1 X82.912 Y132.685 E0.05891
G1 X82.405 Y132.685 E0.01295
G1 X82.405 Y130.378 E0.05891
G1 X81.898 Y130.378 E0.01295
G1 X81.898 Y132.685 E0.05891
G1 X81.391 Y132.685 E0.01295
G1 X81.391 Y130.240 E0.06244
G1 X82.767 Y128.243 F10800.000
;TYPE:Support material
;WIDTH:0.42
G1 F1200.000
G1 X82.767 Y130.036 E0.05621
G1 X82.013 Y130.036 E0.02365
G1 X82.013 Y128.413 E0.05088
G1 X81.259 Y128.413 E0.02365
G1 X81.259 Y130.036 E0.05088
G1 X80.823 Y130.036 E0.01365
G1 X80.823 Y133.027 E0.09379
G1 X81.259 Y133.027 E0.01365
G1 X81.259 Y135.650 E0.08224
G1 X82.013 Y135.650 E0.02365
G1 X82.013 Y133.027 E0.08224
G1 X82.767 Y133.027 E0.02365
G1 X82.767 Y135.650 E0.08224
G1 X83.521 Y135.650 E0.02365
G1 X83.521 Y133.027 E0.08224
G1 X83.815 Y133.027 E0.00920
G1 X83.815 Y132.289 E0.02315
G1 X84.275 Y132.289 E0.01445
G1 X84.275 Y135.650 E0.10539
G1 X85.030 Y135.650 E0.02365
G1 X85.030 Y132.289 E0.10539
G1 X85.784 Y132.289 E0.02365
G1 X85.784 Y135.820 E0.11071
;WIPE_START
G1 F8640.000
G1 X85.784 Y132.528 E-0.76000
;WIPE_END
G1 E-0.04000 F2100.000
G1 Z0.600 F10800.000
G1 X83.420 Y121.822
G1 Z0.200
G1 E0.80000 F2100.000
;TYPE:Support material interface
;WIDTH:0.35
G1 F1200.000
G1 X83.420 Y121.150 E0.01718
G1 X82.912 Y121.150 E0.01295
G1 X82.912 Y128.071 E0.17673
G1 X82.405 Y128.071 E0.01295
G1 X82.405 Y121.150 E0.17673
G1 X81.898 Y121.150 E0.01295
G1 X81.898 Y128.071 E0.17673
G1 X81.391 Y128.071 E0.01295
G1 X81.391 Y121.011 E0.18025
G1 X81.259 Y120.977 F10800.000
;TYPE:Support material
;WIDTH:0.42
G1 F1200.000
G1 X81.259 Y118.185 E0.08756
M73 P0 R119
G1 X82.013 Y118.185 E0.02365
G1 X82.013 Y120.807 E0.08224
G1 X82.767 Y120.807 E0.02365
G1 X82.767 Y118.185 E0.08224
G1 X83.521 Y118.185 E0.02365
G1 X83.521 Y120.807 E0.08224
G1 X83.811 Y120.807 E0.00909
G1 X84.275 Y120.012 E0.02887
G1 X84.275 Y118.185 E0.05730
G1 X85.030 Y118.185 E0.02365
G1 X85.030 Y119.056 E0.02734
;WIPE_START
G1 F8640.000
G1 X85.030 Y118.185 E-0.20132
G1 X84.275 Y118.185 E-0.17414
G1 X84.275 Y119.850 E-0.38454
;WIPE_END
G1 E-0.04000 F2100.000
G1 Z0.600 F10800.000
G1 X159.691 Y111.094
G1 Z0.200
G1 E0.80000 F2100.000
G1 F1200.000
G1 X159.691 Y123.461 E0.38778
G1 X160.445 Y123.461 E0.02365
G1 X160.445 Y111.263 E0.38246
G1 X161.200 Y111.263 E0.02365
G1 X161.200 Y123.461 E0.38246
G1 X161.954 Y123.461 E0.02365
G1 X161.954 Y111.263 E0.38246
G1 X162.708 Y111.263 E0.02365
G1 X162.708 Y123.461 E0.38246
G1 X163.462 Y123.461 E0.02365
G1 X163.462 Y111.263 E0.38246
G1 X164.216 Y111.263 E0.02365
G1 X164.216 Y123.461 E0.38246
G1 X164.970 Y123.461 E0.02365
G1 X164.970 Y111.263 E0.38246
G1 X165.725 Y111.263 E0.02365
G1 X165.725 Y123.461 E0.38246
G1 X166.185 Y123.461 E0.01445
G1 X166.185 Y123.115 E0.01088
G1 X166.479 Y123.115 E0.00920
G1 X166.479 Y111.263 E0.37158
G1 X167.233 Y111.263 E0.02365
G1 X167.233 Y123.115 E0.37158
G1 X167.987 Y123.115 E0.02365
G1 X167.987 Y111.263 E0.37158
G1 X168.741 Y111.263 E0.02365
G1 X168.741 Y123.284 E0.37690
;WIPE_START
G1 F8640.000
G1 X168.741 Y119.993 E-0.76000
;WIPE_END
G1 E-0.04000 F2100.000
G1 Z0.600 F10800.000
G1 X166.580 Y123.318
G1 Z0.200
G1 E0.80000 F2100.000
;TYPE:Support material interface
;WIDTH:0.35
G1 F1200.000
G1 X166.580 Y123.496 E0.00455
G1 X166.709 Y123.496 E0.00329
G1 X166.931 Y123.718 E0.00801
G1 X166.931 Y125.764 E0.05223
G1 X167.088 Y125.764 E0.00399
G1 X167.088 Y123.457 E0.05891
G1 X167.595 Y123.457 E0.01295
G1 X167.595 Y125.764 E0.05891
G1 X168.102 Y125.764 E0.01295
G1 X168.102 Y123.457 E0.05891
G1 X168.609 Y123.457 E0.01295
G1 X168.609 Y125.902 E0.06244
G1 X167.233 Y125.936 F10800.000
;TYPE:Support material
;WIDTH:0.42
G1 F1200.000
G1 X167.233 Y130.036 E0.12854
G1 X167.987 Y130.036 E0.02365
G1 X167.987 Y126.106 E0.12322
G1 X168.741 Y126.106 E0.02365
G1 X168.741 Y130.205 E0.12854
;WIPE_START
G1 F8640.000
G1 X168.741 Y126.914 E-0.76000
;WIPE_END
G1 E-0.04000 F2100.000
G1 Z0.600 F10800.000
G1 X168.609 Y132.823
G1 Z0.200
G1 E0.80000 F2100.000
;TYPE:Support material interface
;WIDTH:0.35
G1 F1200.000
G1 X168.609 Y130.378 E0.06244
G1 X168.102 Y130.378 E0.01295
G1 X168.102 Y132.685 E0.05891
G1 X167.595 Y132.685 E0.01295
G1 X167.595 Y130.378 E0.05891
G1 X167.088 Y130.378 E0.01295
G1 X167.088 Y132.685 E0.05891
G1 X166.580 Y132.685 E0.01295
G1 X166.580 Y132.115 E0.01454
G1 X164.216 Y132.119 F10800.000
;TYPE:Support material
;WIDTH:0.42
G1 F1200.000
G1 X164.216 Y135.650 E0.11071
G1 X164.970 Y135.650 E0.02365
G1 X164.970 Y132.289 E0.10539
G1 X165.725 Y132.289 E0.02365
G1 X165.725 Y135.650 E0.10539
G1 X166.479 Y135.650 E0.02365
G1 X166.479 Y133.027 E0.08224
G1 X167.233 Y133.027 E0.02365
G1 X167.233 Y135.650 E0.08224
G1 X167.987 Y135.650 E0.02365
G1 X167.987 Y133.027 E0.08224
G1 X168.741 Y133.027 E0.02365
G1 X168.741 Y135.650 E0.08224
G1 X169.495 Y135.650 E0.02365
G1 X169.495 Y111.263 E0.76462
G1 X170.250 Y111.263 E0.02365
G1 X170.250 Y135.650 E0.76462
G1 X171.004 Y135.650 E0.02365
G1 X171.004 Y111.263 E0.76462
G1 X171.758 Y111.263 E0.02365
G1 X171.758 Y135.820 E0.76994
;WIPE_START
G1 F8640.000
G1 X171.758 Y132.528 E-0.76000
;WIPE_END
G1 E-0.04000 F2100.000
G1 Z0.600 F10800.000
G1 X123.961 Y116.721
G1 Z0.200
G1 E0.80000 F2100.000
;TYPE:Perimeter
G1 F1200.000
G1 X123.765 Y117.158 E0.01500
G1 X123.527 Y117.573 E0.01500
G1 X123.248 Y117.962 E0.01500
G1 X122.932 Y118.321 E0.01500
G1 X122.582 Y118.647 E0.01500
G1 X122.201 Y118.936 E0.01500
G1 X121.793 Y119.186 E0.01500
G1 X121.363 Y119.394 E0.01500
G1 X120.913 Y119.558 E0.01500
G1 X120.450 Y119.677 E0.01500
G1 X119.977 Y119.748 E0.01500
G1 X119.516 Y119.771 E0.01446
G1 X105.484 Y119.771 E0.43998
G1 X105.016 Y119.748 E0.01469
G1 X104.324 Y119.625 E0.02203
G1 X103.853 Y119.480 E0.01546
G1 X103.212 Y119.190 E0.02204
G1 X102.786 Y118.928 E0.01570
G1 X102.238 Y118.489 E0.02201
G1 X101.751 Y117.962 E0.02249
G1 X101.352 Y117.375 E0.02226
G1 X101.132 Y116.942 E0.01523
G1 X100.958 Y116.496 E0.01500
G1 X100.830 Y116.035 E0.01501
G1 X100.746 Y115.549 E0.01547
G1 X100.715 Y114.855 E0.02178
G1 X100.753 Y114.371 E0.01522
G1 X100.837 Y113.900 E0.01500
G1 X100.969 Y113.440 E0.01500
G1 X101.146 Y112.996 E0.01500
G1 X101.358 Y112.586 E0.01446
G1 X108.378 Y100.557 E0.43670
G1 X108.764 Y99.996 E0.02135
G1 X109.084 Y99.635 E0.01513
G1 X109.439 Y99.308 E0.01513
G1 X110.013 Y98.898 E0.02211
G1 X110.641 Y98.578 E0.02211
G1 X111.102 Y98.411 E0.01536
G1 X111.789 Y98.255 E0.02211
G1 X112.485 Y98.202 E0.02187
G1 X112.974 Y98.226 E0.01537
G1 X113.452 Y98.298 E0.01514
G1 X114.124 Y98.486 E0.02188
G1 X114.569 Y98.673 E0.01513
G1 X114.993 Y98.902 E0.01513
G1 X115.567 Y99.313 E0.02211
G1 X116.073 Y99.803 E0.02211
G1 X116.376 Y100.179 E0.01513
G1 X116.626 Y100.563 E0.01436
G1 X123.642 Y112.586 E0.43647
M73 Q0 S120
G1 X123.854 Y112.996 E0.01446
G1 X124.031 Y113.440 E0.01500
G1 X124.163 Y113.900 E0.01500
G1 X124.247 Y114.371 E0.01500
G1 X124.285 Y114.848 E0.01500
G1 X124.275 Y115.326 E0.01500
G1 X124.217 Y115.801 E0.01500
G1 X124.112 Y116.267 E0.01500
G1 X123.979 Y116.664 E0.01312
G1 X123.622 Y116.545 F10800.000
;TYPE:External perimeter
G1 F1200.000
G1 X123.428 Y116.986 E0.01510
G1 X123.209 Y117.369 E0.01382
G1 X122.953 Y117.727 E0.01382
G1 X122.662 Y118.058 E0.01382
G1 X122.339 Y118.358 E0.01382
G1 X121.988 Y118.625 E0.01382
G1 X121.613 Y118.855 E0.01382
G1 X121.216 Y119.046 E0.01382
G1 X120.802 Y119.198 E0.01382
G1 X120.375 Y119.306 E0.01382
G1 X119.939 Y119.372 E0.01382
G1 X119.507 Y119.394 E0.01357
G1 X105.493 Y119.394 E0.43938
G1 X105.058 Y119.372 E0.01366
G1 X104.413 Y119.258 E0.02055
G1 X103.987 Y119.126 E0.01398
G1 X103.390 Y118.856 E0.02055
G1 X103.003 Y118.619 E0.01422
G1 X102.496 Y118.212 E0.02039
G1 X102.047 Y117.727 E0.02071
G1 X101.678 Y117.183 E0.02063
G1 X101.476 Y116.788 E0.01390
G1 X101.316 Y116.377 E0.01382
G1 X101.198 Y115.952 E0.01382
G1 X101.122 Y115.508 E0.01413
G1 X101.092 Y114.861 E0.02031
G1 X101.127 Y114.419 E0.01390
G1 X101.205 Y113.985 E0.01382
G1 X101.326 Y113.562 E0.01382
G1 X101.489 Y113.152 E0.01382
G1 X101.688 Y112.768 E0.01357
G1 X108.696 Y100.759 E0.43596
G1 X109.061 Y100.229 E0.02017
G1 X109.354 Y99.900 E0.01381
G1 X109.678 Y99.601 E0.01381
G1 X110.209 Y99.221 E0.02050
G1 X110.792 Y98.924 E0.02050
G1 X111.208 Y98.773 E0.01389
G1 X111.845 Y98.629 E0.02049
G1 X112.490 Y98.580 E0.02026
G1 X112.937 Y98.602 E0.01404
G1 X113.373 Y98.667 E0.01381
G1 X114.000 Y98.843 E0.02041
G1 X114.406 Y99.013 E0.01381
G1 X114.793 Y99.223 E0.01381
G1 X115.325 Y99.603 E0.02050
G1 X115.794 Y100.058 E0.02050
G1 X116.070 Y100.401 E0.01381
G1 X116.305 Y100.761 E0.01348
G1 X123.312 Y112.768 E0.43588
G1 X123.511 Y113.152 E0.01357
G1 X123.674 Y113.562 E0.01382
G1 X123.795 Y113.985 E0.01382
G1 X123.873 Y114.419 E0.01382
G1 X123.908 Y114.858 E0.01382
G1 X123.898 Y115.299 E0.01382
G1 X123.845 Y115.736 E0.01382
G1 X123.748 Y116.166 E0.01382
G1 X123.641 Y116.488 E0.01065
G1 X123.874 Y116.856 F10800.000
;WIPE_START
G1 F8640.000
G1 X123.428 Y116.986 E-0.12500
G1 X123.209 Y117.369 E-0.10175
G1 X122.953 Y117.727 E-0.10175
G1 X122.662 Y118.058 E-0.10175
G1 X122.339 Y118.358 E-0.10175
G1 X121.988 Y118.625 E-0.10175
G1 X121.613 Y118.855 E-0.10175
G1 X121.517 Y118.901 E-0.02451
;WIPE_END
G1 E-0.04000 F2100.000
G1 Z0.600 F10800.000
G1 X142.048 Y124.662
G1 Z0.200
G1 E0.80000 F2100.000
;TYPE:Perimeter
G1 F1200.000
G1 X165.336 Y124.662 E0.73016
G1 X165.336 Y131.088 E0.20148
G1 X84.665 Y131.088 E2.52937
G1 X84.669 Y121.720 E0.29373
G1 X108.344 Y81.165 E1.47239
G1 X108.633 Y80.766 E0.01545
G1 X109.136 Y80.227 E0.02312
G1 X109.714 Y79.769 E0.02313
G1 X110.144 Y79.507 E0.01576
G1 X110.817 Y79.207 E0.02310
G1 X111.037 Y79.133 E0.00729
G1 X111.522 Y79.010 E0.01566
G1 X112.015 Y78.936 E0.01565
G1 X112.746 Y78.919 E0.02292
G1 X113.236 Y78.968 E0.01543
G1 X113.719 Y79.065 E0.01543
G1 X114.190 Y79.210 E0.01546
G1 X114.650 Y79.402 E0.01563
G1 X115.286 Y79.769 E0.02301
G1 X115.864 Y80.227 E0.02313
G1 X116.367 Y80.766 E0.02312
G1 X116.656 Y81.165 E0.01545
G1 X142.018 Y124.610 E1.57732
G1 X142.265 Y124.285 F10800.000
;TYPE:External perimeter
G1 F1200.000
G1 X165.713 Y124.285 E0.73520
G1 X165.713 Y131.465 E0.22512
G1 X84.288 Y131.465 E2.55302
M73 P1 R119
M73 Q1 S120
G1 X84.292 Y121.618 E0.30876
G1 X108.027 Y80.958 E1.47617
G1 X108.339 Y80.529 E0.01662
G1 X108.692 Y80.132 E0.01667
G1 X108.880 Y79.949 E0.00822
G1 X109.078 Y79.775 E0.00826
G1 X109.503 Y79.456 E0.01665
G1 X109.960 Y79.178 E0.01679
G1 X110.192 Y79.060 E0.00814
G1 X110.684 Y78.854 E0.01674
G1 X110.931 Y78.771 E0.00818
G1 X111.447 Y78.640 E0.01669
G1 X111.973 Y78.561 E0.01668
G1 X112.233 Y78.542 E0.00815
G1 X112.765 Y78.542 E0.01669
G1 X113.292 Y78.594 E0.01661
G1 X113.811 Y78.699 E0.01661
G1 X114.319 Y78.855 E0.01664
G1 X114.808 Y79.060 E0.01666
G1 X115.040 Y79.178 E0.00814
G1 X115.497 Y79.456 E0.01679
G1 X115.922 Y79.775 E0.01665
G1 X116.308 Y80.132 E0.01648
G1 X116.661 Y80.529 E0.01667
G1 X116.973 Y80.958 E0.01662
G1 X142.234 Y124.233 E1.57112
G1 X142.335 Y124.679 F10800.000
;WIPE_START
G1 F8640.000
G1 X145.526 Y124.240 E-0.76000
;WIPE_END
G1 E-0.04000 F2100.000
G1 Z0.600 F10800.000
G1 X114.204 Y79.340
G1 Z0.200
G1 E0.80000 F2100.000
;TYPE:Solid infill
;WIDTH:0.421437
G1 F1200.000
G1 X116.750 Y81.886 E0.11335
G1 X117.501 Y83.172 E0.04687
G1 X113.677 Y79.348 E0.17022
G1 X113.194 Y79.248 E0.01551
G1 X113.024 Y79.231 E0.00536
G1 X118.252 Y84.458 E0.23267
G1 X119.002 Y85.744 E0.04687
G1 X112.460 Y79.202 E0.29120
G1 X112.264 Y79.202 E0.00616
G1 X111.963 Y79.240 E0.00957
G1 X119.753 Y87.030 E0.34675
G1 X120.504 Y88.316 E0.04687
G1 X111.498 Y79.310 E0.40085
G1 X111.079 Y79.427 E0.01368
G1 X121.254 Y89.602 E0.45290
G1 X122.005 Y90.888 E0.04687
G1 X110.685 Y79.568 E0.50385
G1 X110.325 Y79.743 E0.01261
G1 X122.756 Y92.174 E0.55331
G1 X123.507 Y93.460 E0.04687
G1 X109.985 Y79.939 E0.60184
G1 X109.874 Y80.003 E0.00405
G1 X109.673 Y80.162 E0.00805
G1 X124.257 Y94.746 E0.64915
G1 X125.008 Y96.032 E0.04687
G1 X109.374 Y80.399 E0.69586
M73 P1 R118
G1 X109.110 Y80.669 E0.01191
G1 X125.759 Y97.318 E0.74106
G1 X126.509 Y98.604 E0.04687
G1 X108.851 Y80.946 E0.78597
G1 X108.626 Y81.256 E0.01206
G1 X127.260 Y99.890 E0.82940
G1 X128.011 Y101.176 E0.04687
G1 X108.423 Y81.589 E0.87185
G1 X108.226 Y81.927 E0.01232
G1 X128.761 Y102.462 E0.91405
G1 X129.512 Y103.748 E0.04687
G1 X108.029 Y82.265 E0.95624
G1 X107.831 Y82.603 E0.01232
G1 X130.263 Y105.034 E0.99844
G1 X131.014 Y106.320 E0.04687
G1 X107.634 Y82.941 E1.04064
G1 X107.437 Y83.279 E0.01232
G1 X131.764 Y107.606 E1.08283
G1 X132.515 Y108.892 E0.04687
G1 X107.239 Y83.617 E1.12503
G1 X107.042 Y83.955 E0.01232
G1 X133.266 Y110.178 E1.16723
G1 X134.016 Y111.464 E0.04687
G1 X106.845 Y84.293 E1.20942
G1 X106.648 Y84.631 E0.01232
G1 X134.767 Y112.750 E1.25162
