; generated by PrusaSlicer 2.3.1 on 2021-05-12 at 11:07:53 UTC


;
;

;
;
; 

; external perimeters extrusion width = 0.45mm
; perimeters extrusion width = 0.45mm
; infill extrusion width = 0.45mm
; solid infill extrusion width = 0.45mm
; top infill extrusion width = 0.40mm
; support material extrusion width = 0.35mm
; first layer extrusion width = 0.42mm

M73 P0 R118
M201 X1250 Y1250 Z400 E5000 ; sets maximum accelerations, mm/sec^2
M203 X180 Y180 Z12 E80 ; sets maximum feedrates, mm/sec
M204 P1250 R1250 T1250 ; sets acceleration (P, T) and retract acceleration (R), mm/sec^2
M205 X8.00 Y8.00 Z2.00 E10.00 ; sets the jerk limits, mm/sec
M205 S0 T0 ; sets the minimum extruding and travel feed rate, mm/sec
M107
;TYPE:Custom
G90 ; use absolute coordinates
M83 ; extruder relative mode
M104 S170 ; set extruder temp for bed leveling
M140 S60 ; set bed temp
M109 R170 ; wait for bed leveling temp
M190 S60 ; wait for bed temp
G28 ; home all without mesh bed level
G29 ; mesh bed leveling 
M104 S215 ; set extruder temp
G92 E0.0
G1 Y-2.0 X179 F2400
G1 Z3 F720
M109 S215 ; wait for extruder temp

; intro line
G1 X170 F1000
G1 Z0.2 F720
G1 X110.0 E8.0 F900
G1 X40.0 E10.0 F700
G92 E0.0

M221 S95 ; set flow
G21 ; set units to millimeters
G90 ; use absolute coordinates
M83 ; use relative distances for extrusion
M900 K0.2 ; Filament gcode LA 1.5
; ; Filament gcode LA 1.0
;LAYER_CHANGE
;Z:0.2
;HEIGHT:0.2
;BEFORE_LAYER_CHANGE
G92 E0.0
;0.2


G1 E-3.20000 F4200.000
G1 Z0.200 F9000.000
;AFTER_LAYER_CHANGE
;0.2
G1 Z0.400
G1 X42.326 Y123.013
G1 Z0.200
G1 E3.20000 F2400.000
M204 S800
;TYPE:Skirt
;WIDTH:0.42
G1 F1200.000
G1 X41.551 Y122.490 E0.02931
G1 X41.051 Y121.741 E0.02825
G1 X40.865 Y120.863 E0.02813
G1 X40.865 Y103.143 E0.55559
G1 X40.953 Y102.545 E0.01894
G1 X41.188 Y101.989 E0.01894
G1 X71.418 Y63.484 E1.53491
G1 X72.623 Y62.374 E0.05138
G1 X74.045 Y61.519 E0.05201
G1 X75.046 Y61.128 E0.03369
G1 X75.836 Y60.921 E0.02560
G1 X77.504 Y60.748 E0.05259
G1 X78.645 Y60.830 E0.03587
G1 X79.499 Y60.998 E0.02727
G1 X80.586 Y61.357 E0.03592
G1 X81.400 Y61.745 E0.02825
G1 X137.945 Y94.204 E2.04426
G1 X138.450 Y94.594 E0.02000
G1 X138.945 Y95.333 E0.02790
G1 X139.134 Y96.202 E0.02790
G1 X139.135 Y120.820 E0.77186
M73 P0 R117
G1 X138.951 Y121.736 E0.02931
G1 X138.428 Y122.511 E0.02931
G1 X137.668 Y123.015 E0.02860
G1 X136.774 Y123.197 E0.02860
G1 X43.242 Y123.197 E2.93263
G1 X42.385 Y123.025 E0.02743
M204 S1250
; printing object solder_spool_holder-Body.stl id:0 copy 0
G1 E-2.24000 F4200.000
;WIPE_START
G1 F7200.000
G1 X41.551 Y122.490 E-0.54881
G1 X41.187 Y121.945 E-0.36319
;WIPE_END
G1 E-0.04800 F4200.000
G1 Z0.400 F9000.000
G1 X43.242 Y120.820
G1 Z0.200
G1 E3.20000 F2400.000
M204 S800
;TYPE:Support material
G1 F1200.000
G1 X43.242 Y103.185 E0.55293
G1 X43.996 Y103.185 E0.02365
G1 X43.996 Y120.650 E0.54761
G1 X44.750 Y120.650 E0.02365
G1 X44.750 Y103.185 E0.54761
G1 X45.505 Y103.185 E0.02365
G1 X45.505 Y120.820 E0.55293
M204 S1250
G1 E-2.24000 F4200.000
;WIPE_START
G1 F7200.000
G1 X45.505 Y119.174 E-0.91200
;WIPE_END
G1 E-0.04800 F4200.000
G1 Z0.400 F9000.000
G1 X48.420 Y117.823
G1 Z0.200
G1 E3.20000 F2400.000
M204 S800
;TYPE:Support material interface
;WIDTH:0.35
G1 F1200.000
G1 X48.420 Y117.299 E0.01340
G1 X48.272 Y117.299 E0.00377
G1 X48.024 Y117.050 E0.00896
G1 X48.024 Y115.378 E0.04271
G1 X47.912 Y115.378 E0.00285
G1 X47.912 Y117.685 E0.05891
G1 X47.405 Y117.685 E0.01295
G1 X47.405 Y115.378 E0.05891
G1 X46.898 Y115.378 E0.01295
G1 X46.898 Y117.685 E0.05891
G1 X46.391 Y117.685 E0.01295
G1 X46.391 Y115.240 E0.06244
M204 S1250
G1 X47.767 Y113.243 F9000.000
M204 S800
;TYPE:Support material
;WIDTH:0.42
G1 F1200.000
G1 X47.767 Y115.036 E0.05621
G1 X47.013 Y115.036 E0.02365
G1 X47.013 Y113.413 E0.05088
G1 X46.259 Y113.413 E0.02365
G1 X46.259 Y115.036 E0.05088
G1 X45.823 Y115.036 E0.01365
G1 X45.823 Y118.027 E0.09379
G1 X46.259 Y118.027 E0.01365
G1 X46.259 Y120.650 E0.08224
G1 X47.013 Y120.650 E0.02365
G1 X47.013 Y118.027 E0.08224
G1 X47.767 Y118.027 E0.02365
G1 X47.767 Y120.650 E0.08224
G1 X48.521 Y120.650 E0.02365
G1 X48.521 Y118.027 E0.08224
G1 X48.815 Y118.027 E0.00920
G1 X48.815 Y117.334 E0.02174
G1 X49.275 Y117.334 E0.01445
G1 X49.275 Y120.650 E0.10398
G1 X50.030 Y120.650 E0.02365
G1 X50.030 Y117.334 E0.10398
G1 X50.784 Y117.334 E0.02365
G1 X50.784 Y120.820 E0.10930
M204 S1250
G1 E-2.24000 F4200.000
;WIPE_START
G1 F7200.000
G1 X50.784 Y119.174 E-0.91200
;WIPE_END
G1 E-0.04800 F4200.000
G1 Z0.400 F9000.000
G1 X48.420 Y106.733
G1 Z0.200
G1 E3.20000 F2400.000
M204 S800
;TYPE:Support material interface
;WIDTH:0.35
G1 F1200.000
G1 X48.420 Y106.150 E0.01490
G1 X47.912 Y106.150 E0.01295
G1 X47.912 Y113.071 E0.17673
G1 X47.405 Y113.071 E0.01295
G1 X47.405 Y106.150 E0.17673
G1 X46.898 Y106.150 E0.01295
G1 X46.898 Y113.071 E0.17673
G1 X46.391 Y113.071 E0.01295
G1 X46.391 Y106.011 E0.18025
M204 S1250
G1 X46.259 Y105.977 F9000.000
M204 S800
;TYPE:Support material
;WIDTH:0.42
G1 F1200.000
G1 X46.259 Y103.185 E0.08756
G1 X47.013 Y103.185 E0.02365
G1 X47.013 Y105.807 E0.08224
G1 X47.767 Y105.807 E0.02365
G1 X47.767 Y103.185 E0.08224
G1 X48.521 Y103.185 E0.02365
G1 X48.521 Y105.807 E0.08224
G1 X48.759 Y105.807 E0.00746
G1 X49.275 Y104.923 E0.03211
G1 X49.275 Y103.185 E0.05450
G1 X50.030 Y103.185 E0.02365
G1 X50.030 Y103.967 E0.02454
M204 S1250
G1 E-2.24000 F4200.000
;WIPE_START
G1 F7200.000
G1 X50.030 Y103.185 E-0.43369
G1 X49.275 Y103.185 E-0.41793
G1 X49.275 Y103.294 E-0.06038
;WIPE_END
G1 E-0.04800 F4200.000
G1 Z0.400 F9000.000
G1 X124.691 Y96.094
G1 Z0.200
G1 E3.20000 F2400.000
M204 S800
G1 F1200.000
G1 X124.691 Y108.416 E0.38637
G1 X125.445 Y108.416 E0.02365
G1 X125.445 Y96.263 E0.38105
G1 X126.200 Y96.263 E0.02365
G1 X126.200 Y108.416 E0.38105
G1 X126.954 Y108.416 E0.02365
G1 X126.954 Y96.263 E0.38105
G1 X127.708 Y96.263 E0.02365
G1 X127.708 Y108.416 E0.38105
G1 X128.462 Y108.416 E0.02365
G1 X128.462 Y96.263 E0.38105
G1 X129.216 Y96.263 E0.02365
G1 X129.216 Y108.416 E0.38105
G1 X129.970 Y108.416 E0.02365
G1 X129.970 Y96.263 E0.38105
G1 X130.725 Y96.263 E0.02365
G1 X130.725 Y108.416 E0.38105
G1 X131.185 Y108.416 E0.01445
G1 X131.185 Y108.115 E0.00947
G1 X131.479 Y108.115 E0.00920
G1 X131.479 Y96.263 E0.37158
G1 X132.233 Y96.263 E0.02365
G1 X132.233 Y108.115 E0.37158
G1 X132.987 Y108.115 E0.02365
G1 X132.987 Y96.263 E0.37158
G1 X133.741 Y96.263 E0.02365
G1 X133.741 Y108.284 E0.37690
M204 S1250
G1 E-2.24000 F4200.000
;WIPE_START
G1 F7200.000
G1 X133.741 Y106.638 E-0.91200
;WIPE_END
G1 E-0.04800 F4200.000
G1 Z0.400 F9000.000
G1 X133.609 Y110.902
G1 Z0.200
G1 E3.20000 F2400.000
M204 S800
;TYPE:Support material interface
;WIDTH:0.35
G1 F1200.000
G1 X133.609 Y108.457 E0.06244
G1 X133.102 Y108.457 E0.01295
G1 X133.102 Y110.764 E0.05891
G1 X132.595 Y110.764 E0.01295
G1 X132.595 Y108.457 E0.05891
G1 X132.088 Y108.457 E0.01295
G1 X132.088 Y110.902 E0.06244
M204 S1250
G1 X132.233 Y110.936 F9000.000
M204 S800
;TYPE:Support material
;WIDTH:0.42
G1 F1200.000
G1 X132.233 Y115.036 E0.12854
G1 X132.987 Y115.036 E0.02365
G1 X132.987 Y111.106 E0.12322
G1 X133.741 Y111.106 E0.02365
G1 X133.741 Y115.205 E0.12854
M204 S1250
G1 E-2.24000 F4200.000
;WIPE_START
G1 F7200.000
G1 X133.741 Y113.560 E-0.91200
;WIPE_END
G1 E-0.04800 F4200.000
G1 Z0.400 F9000.000
G1 X133.609 Y117.823
G1 Z0.200
G1 E3.20000 F2400.000
M204 S800
;TYPE:Support material interface
;WIDTH:0.35
G1 F1200.000
G1 X133.609 Y115.378 E0.06244
G1 X133.102 Y115.378 E0.01295
G1 X133.102 Y117.685 E0.05891
G1 X132.595 Y117.685 E0.01295
G1 X132.595 Y115.378 E0.05891
G1 X132.088 Y115.378 E0.01295
G1 X132.088 Y117.685 E0.05891
G1 X131.580 Y117.685 E0.01295
G1 X131.580 Y117.160 E0.01340
M204 S1250
G1 X129.216 Y117.164 F9000.000
M204 S800
;TYPE:Support material
;WIDTH:0.42
G1 F1200.000
G1 X129.216 Y120.650 E0.10930
G1 X129.970 Y120.650 E0.02365
G1 X129.970 Y117.334 E0.10398
G1 X130.725 Y117.334 E0.02365
G1 X130.725 Y120.650 E0.10398
G1 X131.479 Y120.650 E0.02365
G1 X131.479 Y118.027 E0.08224
G1 X132.233 Y118.027 E0.02365
G1 X132.233 Y120.650 E0.08224
G1 X132.987 Y120.650 E0.02365
G1 X132.987 Y118.027 E0.08224
G1 X133.741 Y118.027 E0.02365
G1 X133.741 Y120.650 E0.08224
G1 X134.495 Y120.650 E0.02365
G1 X134.495 Y96.263 E0.76462
G1 X135.250 Y96.263 E0.02365
G1 X135.250 Y120.650 E0.76462
G1 X136.004 Y120.650 E0.02365
G1 X136.004 Y96.263 E0.76462
G1 X136.758 Y96.263 E0.02365
G1 X136.758 Y120.820 E0.76994
M204 S1250
G1 E-2.24000 F4200.000
;WIPE_START
G1 F7200.000
G1 X136.758 Y119.174 E-0.91200
;WIPE_END
G1 E-0.04800 F4200.000
G1 Z0.400 F9000.000
G1 X88.961 Y101.721
G1 Z0.200
G1 E3.20000 F2400.000
M204 S800
;TYPE:Perimeter
G1 F1200.000
G1 X88.765 Y102.158 E0.01500
G1 X88.527 Y102.573 E0.01500
G1 X88.248 Y102.962 E0.01500
G1 X87.932 Y103.321 E0.01500
G1 X87.582 Y103.647 E0.01500
G1 X87.201 Y103.936 E0.01500
G1 X86.793 Y104.186 E0.01500
G1 X86.363 Y104.394 E0.01500
G1 X85.913 Y104.558 E0.01500
G1 X85.450 Y104.677 E0.01500
G1 X84.977 Y104.748 E0.01500
G1 X84.516 Y104.771 E0.01446
G1 X70.484 Y104.771 E0.43998
G1 X70.016 Y104.748 E0.01469
G1 X69.324 Y104.625 E0.02203
G1 X68.853 Y104.480 E0.01546
G1 X68.212 Y104.190 E0.02204
G1 X67.786 Y103.928 E0.01570
G1 X67.238 Y103.489 E0.02201
G1 X66.751 Y102.962 E0.02249
G1 X66.352 Y102.375 E0.02226
G1 X66.132 Y101.942 E0.01523
G1 X65.958 Y101.496 E0.01500
G1 X65.830 Y101.035 E0.01501
G1 X65.746 Y100.549 E0.01547
G1 X65.715 Y99.855 E0.02178
G1 X65.753 Y99.371 E0.01522
G1 X65.837 Y98.900 E0.01500
G1 X65.969 Y98.440 E0.01500
G1 X66.146 Y97.996 E0.01500
G1 X66.358 Y97.586 E0.01446
G1 X73.378 Y85.557 E0.43670
G1 X73.764 Y84.996 E0.02135
G1 X74.084 Y84.635 E0.01513
G1 X74.439 Y84.308 E0.01513
G1 X75.013 Y83.898 E0.02211
G1 X75.641 Y83.578 E0.02211
G1 X76.102 Y83.411 E0.01536
G1 X76.789 Y83.255 E0.02211
G1 X77.485 Y83.202 E0.02187
G1 X77.974 Y83.226 E0.01537
G1 X78.452 Y83.298 E0.01514
G1 X79.124 Y83.486 E0.02188
G1 X79.569 Y83.673 E0.01513
G1 X79.993 Y83.902 E0.01513
G1 X80.567 Y84.313 E0.02211
G1 X81.073 Y84.803 E0.02211
G1 X81.376 Y85.179 E0.01513
G1 X81.626 Y85.563 E0.01436
G1 X88.642 Y97.586 E0.43647
G1 X88.854 Y97.996 E0.01446
G1 X89.031 Y98.440 E0.01500
G1 X89.163 Y98.900 E0.01500
G1 X89.247 Y99.371 E0.01500
G1 X89.285 Y99.848 E0.01500
G1 X89.275 Y100.326 E0.01500
G1 X89.217 Y100.801 E0.01500
G1 X89.112 Y101.267 E0.01500
G1 X88.979 Y101.664 E0.01312
M204 S1250
G1 X88.622 Y101.545 F9000.000
M204 S800
;TYPE:External perimeter
G1 F1200.000
G1 X88.428 Y101.986 E0.01510
G1 X88.209 Y102.369 E0.01382
G1 X87.953 Y102.727 E0.01382
G1 X87.662 Y103.058 E0.01382
G1 X87.339 Y103.358 E0.01382
G1 X86.988 Y103.625 E0.01382
G1 X86.613 Y103.855 E0.01382
G1 X86.216 Y104.046 E0.01382
G1 X85.802 Y104.198 E0.01382
G1 X85.375 Y104.306 E0.01382
G1 X84.939 Y104.372 E0.01382
G1 X84.507 Y104.394 E0.01357
G1 X70.493 Y104.394 E0.43938
G1 X70.058 Y104.372 E0.01366
G1 X69.413 Y104.258 E0.02055
G1 X68.987 Y104.126 E0.01398
G1 X68.390 Y103.856 E0.02055
G1 X68.003 Y103.619 E0.01422
G1 X67.496 Y103.212 E0.02039
G1 X67.047 Y102.727 E0.02071
G1 X66.678 Y102.183 E0.02063
G1 X66.476 Y101.788 E0.01390
G1 X66.316 Y101.377 E0.01382
G1 X66.198 Y100.952 E0.01382
G1 X66.122 Y100.508 E0.01413
G1 X66.092 Y99.861 E0.02031
G1 X66.127 Y99.419 E0.01390
G1 X66.205 Y98.985 E0.01382
G1 X66.326 Y98.562 E0.01382
G1 X66.489 Y98.152 E0.01382
G1 X66.688 Y97.768 E0.01357
G1 X73.696 Y85.759 E0.43596
G1 X74.061 Y85.229 E0.02017
G1 X74.354 Y84.900 E0.01381
G1 X74.678 Y84.601 E0.01381
G1 X75.209 Y84.221 E0.02050
G1 X75.792 Y83.924 E0.02050
G1 X76.208 Y83.773 E0.01389
G1 X76.845 Y83.629 E0.02049
G1 X77.490 Y83.580 E0.02026
G1 X77.937 Y83.602 E0.01404
G1 X78.373 Y83.667 E0.01381
G1 X79.000 Y83.843 E0.02041
G1 X79.406 Y84.013 E0.01381
G1 X79.793 Y84.223 E0.01381
G1 X80.325 Y84.603 E0.02050
G1 X80.794 Y85.058 E0.02050
G1 X81.070 Y85.401 E0.01381
G1 X81.305 Y85.761 E0.01348
G1 X88.312 Y97.768 E0.43588
G1 X88.511 Y98.152 E0.01357
G1 X88.674 Y98.562 E0.01382
G1 X88.795 Y98.985 E0.01382
G1 X88.873 Y99.419 E0.01382
G1 X88.908 Y99.858 E0.01382
G1 X88.898 Y100.299 E0.01382
G1 X88.845 Y100.736 E0.01382
G1 X88.748 Y101.166 E0.01382
G1 X88.641 Y101.488 E0.01065
M204 S1250
G1 X88.874 Y101.856 F9000.000
G1 E-2.24000 F4200.000
;WIPE_START
G1 F7200.000
G1 X88.428 Y101.986 E-0.30001
G1 X88.209 Y102.369 E-0.24419
G1 X87.953 Y102.727 E-0.24419
G1 X87.805 Y102.894 E-0.12360
;WIPE_END
G1 E-0.04800 F4200.000
G1 Z0.400 F9000.000
G1 X107.048 Y109.662
G1 Z0.200
G1 E3.20000 F2400.000
M204 S800
;TYPE:Perimeter
G1 F1200.000
G1 X130.336 Y109.662 E0.73016
G1 X130.336 Y116.088 E0.20148
G1 X49.665 Y116.088 E2.52937
M73 P1 R117
G1 X49.669 Y106.720 E0.29373
G1 X73.344 Y66.165 E1.47239
G1 X73.633 Y65.766 E0.01545
G1 X74.136 Y65.227 E0.02312
G1 X74.714 Y64.769 E0.02313
G1 X75.144 Y64.507 E0.01576
G1 X75.817 Y64.207 E0.02310
G1 X76.037 Y64.133 E0.00729
G1 X76.522 Y64.010 E0.01566
G1 X77.015 Y63.936 E0.01565
G1 X77.746 Y63.919 E0.02292
G1 X78.236 Y63.968 E0.01543
G1 X78.719 Y64.065 E0.01543
G1 X79.190 Y64.210 E0.01546
G1 X79.650 Y64.402 E0.01563
G1 X80.286 Y64.769 E0.02301
G1 X80.864 Y65.227 E0.02313
G1 X81.367 Y65.766 E0.02312
G1 X81.656 Y66.165 E0.01545
G1 X107.018 Y109.610 E1.57732
M204 S1250
G1 X107.265 Y109.285 F9000.000
M204 S800
;TYPE:External perimeter
G1 F1200.000
G1 X130.713 Y109.285 E0.73520
G1 X130.713 Y116.465 E0.22512
G1 X49.288 Y116.465 E2.55302
G1 X49.292 Y106.618 E0.30876
M73 P1 R116
G1 X73.027 Y65.958 E1.47617
G1 X73.339 Y65.529 E0.01662
G1 X73.692 Y65.132 E0.01667
G1 X73.880 Y64.949 E0.00822
G1 X74.078 Y64.775 E0.00826
G1 X74.503 Y64.456 E0.01665
G1 X74.960 Y64.178 E0.01679
G1 X75.192 Y64.060 E0.00814
G1 X75.684 Y63.854 E0.01674
G1 X75.931 Y63.771 E0.00818
G1 X76.447 Y63.640 E0.01669
G1 X76.973 Y63.561 E0.01668
G1 X77.233 Y63.542 E0.00815
G1 X77.765 Y63.542 E0.01669
G1 X78.292 Y63.594 E0.01661
G1 X78.811 Y63.699 E0.01661
G1 X79.319 Y63.855 E0.01664
G1 X79.808 Y64.060 E0.01666
G1 X80.040 Y64.178 E0.00814
G1 X80.497 Y64.456 E0.01679
G1 X80.922 Y64.775 E0.01665
G1 X81.308 Y65.132 E0.01648
G1 X81.661 Y65.529 E0.01667
G1 X81.973 Y65.958 E0.01662
G1 X107.234 Y109.233 E1.57112
M204 S1250
G1 X107.335 Y109.679 F9000.000
G1 E-2.24000 F4200.000
;WIPE_START
G1 F7200.000
G1 X108.880 Y109.237 E-0.91200
;WIPE_END
G1 E-0.04800 F4200.000
G1 Z0.400 F9000.000
G1 X79.204 Y64.340
G1 Z0.200
G1 E3.20000 F2400.000
M204 S800
;TYPE:Solid infill
;WIDTH:0.421437
G1 F1200.000
G1 X81.750 Y66.886 E0.11335
G1 X82.501 Y68.172 E0.04687
G1 X78.677 Y64.348 E0.17022
G1 X78.194 Y64.248 E0.01551
G1 X78.024 Y64.231 E0.00536
G1 X83.252 Y69.458 E0.23267
G1 X84.002 Y70.744 E0.04687
G1 X77.460 Y64.202 E0.29120
G1 X77.264 Y64.202 E0.00616
G1 X76.963 Y64.240 E0.00957
G1 X84.753 Y72.030 E0.34675
G1 X85.504 Y73.316 E0.04687
G1 X76.498 Y64.310 E0.40085
G1 X76.079 Y64.427 E0.01368
G1 X86.254 Y74.602 E0.45290
G1 X87.005 Y75.888 E0.04687
G1 X75.685 Y64.568 E0.50385
G1 X75.325 Y64.743 E0.01261
G1 X87.756 Y77.174 E0.55331
G1 X88.507 Y78.460 E0.04687
G1 X74.985 Y64.939 E0.60184
G1 X74.874 Y65.003 E0.00405
G1 X74.673 Y65.162 E0.00805
G1 X89.257 Y79.746 E0.64915
G1 X90.008 Y81.032 E0.04687
G1 X74.374 Y65.399 E0.69586
G1 X74.110 Y65.669 E0.01191
G1 X90.759 Y82.318 E0.74106
G1 X91.509 Y83.604 E0.04687
G1 X73.851 Y65.946 E0.78597
G1 X73.626 Y66.256 E0.01206
G1 X92.260 Y84.890 E0.82940
G1 X93.011 Y86.176 E0.04687
G1 X73.423 Y66.589 E0.87185
G1 X73.226 Y66.927 E0.01232
G1 X93.761 Y87.462 E0.91405
G1 X94.512 Y88.748 E0.04687
G1 X73.029 Y67.265 E0.95624
G1 X72.831 Y67.603 E0.01232
G1 X95.263 Y90.034 E0.99844
G1 X96.014 Y91.320 E0.04687
G1 X72.634 Y67.941 E1.04064
G1 X72.437 Y68.279 E0.01232
G1 X96.764 Y92.606 E1.08283
G1 X97.515 Y93.892 E0.04687
G1 X72.239 Y68.617 E1.12503
G1 X72.042 Y68.955 E0.01232
G1 X98.266 Y95.178 E1.16723
G1 X99.016 Y96.464 E0.04687
G1 X71.845 Y69.293 E1.20942
G1 X71.648 Y69.631 E0.01232
G1 X99.767 Y97.750 E1.25162
G1 X100.518 Y99.036 E0.04687
G1 X71.450 Y69.969 E1.29382
G1 X71.253 Y70.307 E0.01232
G1 X101.269 Y100.322 E1.33601
G1 X102.019 Y101.608 E0.04687
G1 X71.056 Y70.645 E1.37821
G1 X70.858 Y70.983 E0.01232
G1 X102.770 Y102.894 E1.42041
G1 X103.521 Y104.180 E0.04687
