; generated by PrusaSlicer 2.3.0 on 2021-04-14 at 11:44:16 UTC


;
;

;
;
; 

; external perimeters extrusion width = 0.45mm
; perimeters extrusion width = 0.45mm
; infill extrusion width = 0.45mm
; solid infill extrusion width = 0.45mm
; top infill extrusion width = 0.40mm
; support material extrusion width = 0.35mm
; first layer extrusion width = 0.42mm

M73 P0 R100
M201 X1250 Y1250 Z400 E5000 ; sets maximum accelerations, mm/sec^2
M203 X180 Y180 Z12 E80 ; sets maximum feedrates, mm/sec
M204 P1250 R1250 T1250 ; sets acceleration (P, T) and retract acceleration (R), mm/sec^2
M205 X8.00 Y8.00 Z2.00 E10.00 ; sets the jerk limits, mm/sec
M205 S0 T0 ; sets the minimum extruding and travel feed rate, mm/sec
M107
;TYPE:Custom
G90 ; use absolute coordinates
M83 ; extruder relative mode
M104 S170 ; set extruder temp for bed leveling
M140 S100 ; set bed temp
M109 R170 ; wait for bed leveling temp
M190 S100 ; wait for bed temp
G28 ; home all without mesh bed level
G29 ; mesh bed leveling 
M104 S260 ; set extruder temp
G92 E0.0
G1 Y-2.0 X179 F2400
G1 Z3 F720
M109 S260 ; wait for extruder temp

; intro line
G1 X170 F1000
G1 Z0.2 F720
G1 X110.0 E8.0 F900
G1 X40.0 E10.0 F700
G92 E0.0

M221 S95 ; set flow
G21 ; set units to millimeters
G90 ; use absolute coordinates
M83 ; use relative distances for extrusion
M900 K0.2 ; Filament gcode
;LAYER_CHANGE
;Z:0.2
;HEIGHT:0.2
;BEFORE_LAYER_CHANGE
G92 E0.0
;0.2


G1 Z0.200 F9000.000
;AFTER_LAYER_CHANGE
;0.2
G1 E-2.70000 F4200.000
G1 Z0.400 F9000.000
G1 X63.357 Y38.575
G1 Z0.200
G1 E2.70000 F2400.000
M204 S800
;TYPE:Skirt
;WIDTH:0.42
G1 F1200.000
G1 X63.838 Y37.993 E0.02367
G1 X64.473 Y37.593 E0.02355
G1 X65.205 Y37.410 E0.02367
G1 X85.060 Y37.401 E0.62252
G1 X85.983 Y37.588 E0.02954
G1 X86.764 Y38.122 E0.02966
G1 X109.506 Y62.335 E1.04154
G1 X109.975 Y63.078 E0.02755
G1 X115.706 Y92.841 E0.95037
G1 X115.720 Y114.108 E0.66678
G1 X115.667 Y114.606 E0.01574
G1 X115.505 Y115.093 E0.01609
G1 X115.239 Y115.537 E0.01621
G1 X97.373 Y138.802 E0.91973
G1 X96.906 Y139.208 E0.01941
G1 X89.948 Y143.735 E0.26025
G1 X89.412 Y143.949 E0.01811
G1 X88.840 Y144.028 E0.01811
G1 X69.205 Y144.198 E0.61566
G1 X62.389 Y144.198 E0.21370
G1 X61.906 Y144.144 E0.01526
G1 X61.180 Y143.856 E0.02449
G1 X60.587 Y143.347 E0.02449
G1 X60.190 Y142.675 E0.02449
G1 X60.033 Y141.909 E0.02449
G1 X60.032 Y94.371 E1.49053
G1 X63.084 Y39.275 E1.73015
G1 X63.335 Y38.631 E0.02167
M204 S1250
; printing object leg_redesigned-mid_piece.stl id:0 copy 0
G1 E-2.70000 F4200.000
G1 Z0.400 F9000.000
G1 X91.067 Y98.821
G1 Z0.200
G1 E2.70000 F2400.000
M204 S800
;TYPE:Support material
G1 F1200.000
G1 X91.067 Y113.466 E0.45919
G1 X90.312 Y113.466 E0.02365
G1 X90.312 Y98.990 E0.45387
G1 X89.558 Y98.990 E0.02365
G1 X89.558 Y113.466 E0.45387
G1 X88.804 Y113.466 E0.02365
G1 X88.804 Y94.398 E0.59787
G1 X88.050 Y94.398 E0.02365
G1 X88.050 Y113.466 E0.59787
G1 X87.296 Y113.466 E0.02365
G1 X87.296 Y94.398 E0.59787
G1 X86.542 Y94.398 E0.02365
G1 X86.542 Y113.466 E0.59787
G1 X85.787 Y113.466 E0.02365
G1 X85.787 Y94.398 E0.59787
G1 X85.033 Y94.398 E0.02365
G1 X85.033 Y107.206 E0.40159
G1 X84.279 Y107.206 E0.02365
G1 X84.279 Y94.398 E0.40159
G1 X83.525 Y94.398 E0.02365
G1 X83.525 Y111.798 E0.54559
G1 X82.771 Y111.798 E0.02365
G1 X82.771 Y94.398 E0.54559
G1 X82.017 Y94.398 E0.02365
G1 X82.017 Y111.798 E0.54559
G1 X81.960 Y111.798 E0.00179
G1 X81.960 Y113.466 E0.05228
G1 X81.262 Y113.466 E0.02186
G1 X81.262 Y94.398 E0.59787
G1 X80.508 Y94.398 E0.02365
G1 X80.508 Y113.466 E0.59787
G1 X79.754 Y113.466 E0.02365
G1 X79.754 Y94.398 E0.59787
G1 X79.000 Y94.398 E0.02365
G1 X79.000 Y113.466 E0.59787
G1 X78.246 Y113.466 E0.02365
G1 X78.246 Y94.398 E0.59787
G1 X77.492 Y94.398 E0.02365
G1 X77.492 Y113.466 E0.59787
G1 X76.738 Y113.466 E0.02365
G1 X76.738 Y94.398 E0.59787
G1 X75.983 Y94.398 E0.02365
G1 X75.983 Y113.466 E0.59787
M73 P0 R99
G1 X75.229 Y113.466 E0.02365
G1 X75.229 Y94.398 E0.59787
G1 X74.475 Y94.398 E0.02365
G1 X74.475 Y113.466 E0.59787
G1 X73.721 Y113.466 E0.02365
G1 X73.721 Y94.398 E0.59787
G1 X72.967 Y94.398 E0.02365
G1 X72.967 Y113.466 E0.59787
G1 X72.213 Y113.466 E0.02365
G1 X72.213 Y94.398 E0.59787
G1 X71.458 Y94.398 E0.02365
G1 X71.458 Y113.466 E0.59787
G1 X70.704 Y113.466 E0.02365
G1 X70.704 Y94.398 E0.59787
G1 X69.950 Y94.398 E0.02365
G1 X69.950 Y141.651 E1.48160
M73 P1 R99
G1 X70.704 Y141.651 E0.02365
G1 X70.704 Y122.583 E0.59787
G1 X71.458 Y122.583 E0.02365
G1 X71.458 Y141.651 E0.59787
G1 X72.213 Y141.651 E0.02365
G1 X72.213 Y122.583 E0.59787
G1 X72.967 Y122.583 E0.02365
G1 X72.967 Y141.651 E0.59787
G1 X73.721 Y141.651 E0.02365
G1 X73.721 Y122.583 E0.59787
G1 X74.475 Y122.583 E0.02365
G1 X74.475 Y141.651 E0.59787
G1 X75.229 Y141.651 E0.02365
G1 X75.229 Y122.583 E0.59787
G1 X75.983 Y122.583 E0.02365
G1 X75.983 Y141.651 E0.59787
G1 X76.738 Y141.651 E0.02365
G1 X76.738 Y122.583 E0.59787
G1 X77.492 Y122.583 E0.02365
G1 X77.492 Y141.651 E0.59787
G1 X78.246 Y141.651 E0.02365
G1 X78.246 Y122.583 E0.59787
G1 X79.000 Y122.583 E0.02365
G1 X79.000 Y141.651 E0.59787
G1 X79.754 Y141.651 E0.02365
G1 X79.754 Y122.583 E0.59787
G1 X80.508 Y122.583 E0.02365
G1 X80.508 Y141.651 E0.59787
G1 X81.262 Y141.651 E0.02365
G1 X81.262 Y122.583 E0.59787
G1 X81.960 Y122.583 E0.02186
G1 X81.960 Y124.250 E0.05228
G1 X82.017 Y124.250 E0.00179
G1 X82.017 Y141.651 E0.54559
G1 X82.771 Y141.651 E0.02365
G1 X82.771 Y124.250 E0.54559
G1 X83.525 Y124.250 E0.02365
G1 X83.525 Y141.651 E0.54559
G1 X84.279 Y141.651 E0.02365
G1 X84.279 Y128.843 E0.40159
G1 X85.033 Y128.843 E0.02365
G1 X85.033 Y141.651 E0.40159
G1 X85.787 Y141.651 E0.02365
G1 X85.787 Y122.583 E0.59787
G1 X86.542 Y122.583 E0.02365
G1 X86.542 Y141.651 E0.59787
G1 X87.296 Y141.651 E0.02365
G1 X87.296 Y122.583 E0.59787
G1 X88.050 Y122.583 E0.02365
G1 X88.050 Y141.651 E0.59787
G1 X88.804 Y141.651 E0.02365
G1 X88.804 Y122.583 E0.59787
G1 X89.558 Y122.583 E0.02365
G1 X89.558 Y137.058 E0.45387
G1 X90.312 Y137.058 E0.02365
G1 X90.312 Y122.583 E0.45387
G1 X91.067 Y122.583 E0.02365
G1 X91.067 Y137.058 E0.45387
G1 X91.821 Y137.058 E0.02365
G1 X91.821 Y98.990 E1.19360
G1 X92.575 Y98.990 E0.02365
G1 X92.575 Y137.058 E1.19360
G1 X93.329 Y137.058 E0.02365
G1 X93.329 Y98.990 E1.19360
G1 X94.083 Y98.990 E0.02365
G1 X94.083 Y137.058 E1.19360
G1 X94.837 Y137.058 E0.02365
G1 X94.837 Y98.990 E1.19360
G1 X95.591 Y98.990 E0.02365
G1 X95.591 Y137.228 E1.19892
M204 S1250
G1 E-2.70000 F4200.000
G1 Z0.400 F9000.000
G1 X69.196 Y141.821
G1 Z0.200
G1 E2.70000 F2400.000
M204 S800
G1 F1200.000
G1 X69.196 Y94.398 E1.48692
G1 X68.442 Y94.398 E0.02365
G1 X68.442 Y141.651 E1.48160
G1 X67.688 Y141.651 E0.02365
G1 X67.688 Y94.398 E1.48160
G1 X66.933 Y94.398 E0.02365
G1 X66.933 Y141.651 E1.48160
G1 X66.179 Y141.651 E0.02365
G1 X66.179 Y121.954 E0.61759
M73 P1 R98
G1 X65.425 Y121.954 E0.02365
G1 X65.425 Y141.651 E0.61759
G1 X64.671 Y141.651 E0.02365
G1 X64.671 Y121.954 E0.61759
G1 X63.917 Y121.954 E0.02365
G1 X63.917 Y141.651 E0.61759
G1 X63.163 Y141.651 E0.02365
G1 X63.163 Y121.954 E0.61759
G1 X62.409 Y121.954 E0.02365
G1 X62.409 Y141.821 E0.62291
M204 S1250
G1 E-2.70000 F4200.000
G1 Z0.400 F9000.000
G1 X62.409 Y114.264
G1 Z0.200
G1 E2.70000 F2400.000
M204 S800
G1 F1200.000
G1 X62.409 Y94.398 E0.62291
G1 X63.163 Y94.398 E0.02365
G1 X63.163 Y114.095 E0.61759
G1 X63.917 Y114.095 E0.02365
G1 X63.917 Y94.398 E0.61759
G1 X64.671 Y94.398 E0.02365
G1 X64.671 Y114.095 E0.61759
G1 X65.425 Y114.095 E0.02365
G1 X65.425 Y94.398 E0.61759
M73 P2 R98
G1 X66.179 Y94.398 E0.02365
G1 X66.179 Y114.264 E0.62291
M204 S1250
G1 E-2.70000 F4200.000
G1 Z0.400 F9000.000
G1 X71.444 Y114.711
G1 Z0.200
G1 E2.70000 F2400.000
M204 S800
;TYPE:Perimeter
G1 F1200.000
G1 X90.550 Y114.711 E0.59905
G1 X90.550 Y121.337 E0.20775
G1 X71.444 Y121.337 E0.59905
G1 X71.444 Y114.771 E0.20587
M204 S1250
G1 X71.067 Y114.334 F9000.000
M204 S800
;TYPE:External perimeter
G1 F1200.000
G1 X90.927 Y114.334 E0.62270
G1 X90.927 Y121.714 E0.23139
G1 X71.067 Y121.714 E0.62270
G1 X71.067 Y114.394 E0.22951
M204 S1250
G1 X71.464 Y114.382 F9000.000
G1 E-2.70000 F4200.000
G1 Z0.400 F9000.000
G1 X90.436 Y115.596
G1 Z0.200
G1 E2.70000 F2400.000
M204 S800
;TYPE:Solid infill
;WIDTH:0.424376
G1 F1200.000
G1 X89.835 Y114.994 E0.02700
G1 X89.295 Y114.994 E0.01711
G1 X90.267 Y115.966 E0.04358
G1 X90.267 Y116.505 E0.01711
G1 X88.756 Y114.994 E0.06778
G1 X88.216 Y114.994 E0.01711
G1 X90.267 Y117.045 E0.09198
G1 X90.267 Y117.584 E0.01711
G1 X87.677 Y114.994 E0.11618
G1 X87.137 Y114.994 E0.01711
G1 X90.267 Y118.124 E0.14038
G1 X90.267 Y118.663 E0.01711
G1 X86.598 Y114.994 E0.16458
G1 X86.058 Y114.994 E0.01711
G1 X90.267 Y119.203 E0.18877
G1 X90.267 Y119.742 E0.01711
G1 X85.519 Y114.994 E0.21297
G1 X84.979 Y114.994 E0.01711
G1 X90.267 Y120.282 E0.23717
G1 X90.267 Y120.821 E0.01711
G1 X84.440 Y114.994 E0.26137
G1 X83.901 Y114.994 E0.01711
G1 X89.961 Y121.054 E0.27184
G1 X89.421 Y121.054 E0.01711
G1 X83.361 Y114.994 E0.27184
G1 X82.822 Y114.994 E0.01711
G1 X88.882 Y121.054 E0.27184
G1 X88.342 Y121.054 E0.01711
G1 X82.282 Y114.994 E0.27184
G1 X81.743 Y114.994 E0.01711
G1 X87.803 Y121.054 E0.27184
G1 X87.264 Y121.054 E0.01711
G1 X81.203 Y114.994 E0.27184
G1 X80.664 Y114.994 E0.01711
G1 X86.724 Y121.054 E0.27184
G1 X86.185 Y121.054 E0.01711
G1 X80.124 Y114.994 E0.27184
G1 X79.585 Y114.994 E0.01711
G1 X85.645 Y121.054 E0.27184
G1 X85.106 Y121.054 E0.01711
G1 X79.045 Y114.994 E0.27184
G1 X78.506 Y114.994 E0.01711
G1 X84.566 Y121.054 E0.27184
G1 X84.027 Y121.054 E0.01711
G1 X77.966 Y114.994 E0.27184
G1 X77.427 Y114.994 E0.01711
G1 X83.487 Y121.054 E0.27184
G1 X82.948 Y121.054 E0.01711
G1 X76.888 Y114.994 E0.27184
G1 X76.348 Y114.994 E0.01711
G1 X82.408 Y121.054 E0.27184
G1 X81.869 Y121.054 E0.01711
G1 X75.809 Y114.994 E0.27184
G1 X75.269 Y114.994 E0.01711
G1 X81.329 Y121.054 E0.27184
G1 X80.790 Y121.054 E0.01711
G1 X74.730 Y114.994 E0.27184
G1 X74.190 Y114.994 E0.01711
G1 X80.251 Y121.054 E0.27184
G1 X79.711 Y121.054 E0.01711
G1 X73.651 Y114.994 E0.27184
G1 X73.111 Y114.994 E0.01711
G1 X79.172 Y121.054 E0.27184
G1 X78.632 Y121.054 E0.01711
G1 X72.572 Y114.994 E0.27184
G1 X72.032 Y114.994 E0.01711
G1 X78.093 Y121.054 E0.27184
G1 X77.553 Y121.054 E0.01711
G1 X71.727 Y115.228 E0.26136
G1 X71.727 Y115.767 E0.01711
G1 X77.014 Y121.054 E0.23716
G1 X76.474 Y121.054 E0.01711
G1 X71.727 Y116.307 E0.21297
G1 X71.727 Y116.846 E0.01711
G1 X75.935 Y121.054 E0.18877
G1 X75.395 Y121.054 E0.01711
G1 X71.727 Y117.386 E0.16457
G1 X71.727 Y117.925 E0.01711
G1 X74.856 Y121.054 E0.14037
G1 X74.316 Y121.054 E0.01711
G1 X71.727 Y118.465 E0.11617
G1 X71.727 Y119.004 E0.01711
G1 X73.777 Y121.054 E0.09197
G1 X73.238 Y121.054 E0.01711
G1 X71.727 Y119.543 E0.06778
G1 X71.727 Y120.083 E0.01711
G1 X72.698 Y121.054 E0.04358
G1 X72.159 Y121.054 E0.01711
G1 X71.557 Y120.453 E0.02699
M204 S1250
; stop printing object leg_redesigned-mid_piece.stl id:0 copy 0
; printing object leg_redesigned-mould_female.stl id:1 copy 0
G1 E-2.70000 F4200.000
G1 Z0.400 F9000.000
G1 X98.130 Y113.317
G1 Z0.200
G1 E2.70000 F2400.000
M204 S800
;TYPE:Perimeter
;WIDTH:0.42
G1 F1200.000
G1 X98.130 Y93.891 E0.60908
G1 X112.556 Y93.891 E0.45231
G1 X112.556 Y113.317 E0.60908
G1 X98.190 Y113.317 E0.45043
M204 S1250
G1 X97.753 Y113.694 F9000.000
M204 S800
;TYPE:External perimeter
G1 F1200.000
G1 X97.753 Y93.514 E0.63273
G1 X112.933 Y93.514 E0.47596
G1 X112.933 Y113.694 E0.63273
G1 X97.813 Y113.694 E0.47408
M204 S1250
G1 X97.839 Y113.303 F9000.000
G1 E-2.70000 F4200.000
G1 Z0.400 F9000.000
G1 X112.443 Y94.776
G1 Z0.200
G1 E2.70000 F2400.000
M204 S800
;TYPE:Solid infill
;WIDTH:0.424696
G1 F1200.000
G1 X111.841 Y94.174 E0.02705
G1 X111.301 Y94.174 E0.01714
G1 X112.273 Y95.146 E0.04367
G1 X112.273 Y95.686 E0.01714
G1 X110.761 Y94.174 E0.06791
G1 X110.221 Y94.174 E0.01714
G1 X112.273 Y96.226 E0.09215
G1 X112.273 Y96.766 E0.01714
G1 X109.681 Y94.174 E0.11639
G1 X109.141 Y94.174 E0.01714
G1 X112.273 Y97.306 E0.14063
G1 X112.273 Y97.846 E0.01714
G1 X108.601 Y94.174 E0.16487
G1 X108.061 Y94.174 E0.01714
G1 X112.273 Y98.386 E0.18910
G1 X112.273 Y98.926 E0.01714
G1 X107.521 Y94.174 E0.21334
G1 X106.981 Y94.174 E0.01714
G1 X112.273 Y99.466 E0.23758
G1 X112.273 Y100.006 E0.01714
G1 X106.441 Y94.174 E0.26182
G1 X105.902 Y94.174 E0.01714
G1 X112.273 Y100.545 E0.28606
G1 X112.273 Y101.085 E0.01714
G1 X105.362 Y94.174 E0.31030
G1 X104.822 Y94.174 E0.01714
G1 X112.273 Y101.625 E0.33454
G1 X112.273 Y102.165 E0.01714
G1 X104.282 Y94.174 E0.35878
G1 X103.742 Y94.174 E0.01714
G1 X112.273 Y102.705 E0.38302
G1 X112.273 Y103.245 E0.01714
G1 X103.202 Y94.174 E0.40725
G1 X102.662 Y94.174 E0.01714
G1 X112.273 Y103.785 E0.43149
G1 X112.273 Y104.325 E0.01714
G1 X102.122 Y94.174 E0.45573
G1 X101.582 Y94.174 E0.01714
G1 X112.273 Y104.865 E0.47997
G1 X112.273 Y105.405 E0.01714
G1 X101.042 Y94.174 E0.50421
G1 X100.502 Y94.174 E0.01714
G1 X112.273 Y105.945 E0.52845
G1 X112.273 Y106.485 E0.01714
G1 X99.962 Y94.174 E0.55269
G1 X99.423 Y94.174 E0.01714
G1 X112.273 Y107.024 E0.57693
G1 X112.273 Y107.564 E0.01714
G1 X98.883 Y94.174 E0.60116
G1 X98.413 Y94.174 E0.01490
G1 X98.413 Y94.244 E0.00224
G1 X112.273 Y108.104 E0.62224
G1 X112.273 Y108.644 E0.01714
G1 X98.413 Y94.784 E0.62224
G1 X98.413 Y95.324 E0.01714
G1 X112.273 Y109.184 E0.62224
G1 X112.273 Y109.724 E0.01714
G1 X98.413 Y95.864 E0.62224
M73 P2 R97
G1 X98.413 Y96.404 E0.01714
G1 X112.273 Y110.264 E0.62224
G1 X112.273 Y110.804 E0.01714
G1 X98.413 Y96.944 E0.62224
G1 X98.413 Y97.483 E0.01714
G1 X112.273 Y111.344 E0.62224
G1 X112.273 Y111.884 E0.01714
G1 X98.413 Y98.023 E0.62224
G1 X98.413 Y98.563 E0.01714
G1 X112.273 Y112.424 E0.62224
G1 X112.273 Y112.963 E0.01714
G1 X98.413 Y99.103 E0.62224
G1 X98.413 Y99.643 E0.01714
G1 X111.804 Y113.034 E0.60116
G1 X111.264 Y113.034 E0.01714
G1 X98.413 Y100.183 E0.57692
G1 X98.413 Y100.723 E0.01714
G1 X110.724 Y113.034 E0.55268
G1 X110.184 Y113.034 E0.01714
G1 X98.413 Y101.263 E0.52844
G1 X98.413 Y101.803 E0.01714
G1 X109.644 Y113.034 E0.50421
M73 P3 R97
G1 X109.104 Y113.034 E0.01714
G1 X98.413 Y102.343 E0.47997
G1 X98.413 Y102.883 E0.01714
G1 X108.564 Y113.034 E0.45573
G1 X108.024 Y113.034 E0.01714
G1 X98.413 Y103.423 E0.43149
G1 X98.413 Y103.962 E0.01714
G1 X107.485 Y113.034 E0.40725
G1 X106.945 Y113.034 E0.01714
G1 X98.413 Y104.502 E0.38301
G1 X98.413 Y105.042 E0.01714
G1 X106.405 Y113.034 E0.35877
G1 X105.865 Y113.034 E0.01714
G1 X98.413 Y105.582 E0.33453
G1 X98.413 Y106.122 E0.01714
G1 X105.325 Y113.034 E0.31029
G1 X104.785 Y113.034 E0.01714
G1 X98.413 Y106.662 E0.28606
G1 X98.413 Y107.202 E0.01714
G1 X104.245 Y113.034 E0.26182
G1 X103.705 Y113.034 E0.01714
G1 X98.413 Y107.742 E0.23758
G1 X98.413 Y108.282 E0.01714
G1 X103.165 Y113.034 E0.21334
G1 X102.625 Y113.034 E0.01714
G1 X98.413 Y108.822 E0.18910
G1 X98.413 Y109.362 E0.01714
G1 X102.085 Y113.034 E0.16486
G1 X101.546 Y113.034 E0.01714
G1 X98.413 Y109.901 E0.14062
G1 X98.413 Y110.441 E0.01714
G1 X101.006 Y113.034 E0.11638
G1 X100.466 Y113.034 E0.01714
G1 X98.413 Y110.981 E0.09215
G1 X98.413 Y111.521 E0.01714
G1 X99.926 Y113.034 E0.06791
G1 X99.386 Y113.034 E0.01714
G1 X98.413 Y112.061 E0.04367
G1 X98.413 Y112.601 E0.01714
G1 X99.016 Y113.204 E0.02705
M204 S1250
; stop printing object leg_redesigned-mould_female.stl id:1 copy 0
; printing object leg_redesigned-mould_male.stl id:2 copy 0
G1 E-2.70000 F4200.000
G1 Z0.400 F9000.000
G1 X91.978 Y68.718
G1 Z0.200
G1 E2.70000 F2400.000
M204 S800
;TYPE:Support material
;WIDTH:0.42
G1 F1200.000
G1 X91.978 Y65.412 E0.10363
G1 X92.732 Y65.412 E0.02365
G1 X92.732 Y68.186 E0.08698
G1 X93.139 Y67.930 E0.01508
G1 X93.486 Y67.583 E0.01539
G1 X93.486 Y65.412 E0.06807
G1 X94.241 Y65.412 E0.02365
G1 X94.241 Y66.853 E0.04519
M204 S1250
G1 E-2.70000 F4200.000
G1 Z0.400 F9000.000
G1 X91.224 Y63.665
G1 Z0.200
G1 E2.70000 F2400.000
M204 S800
G1 F1200.000
G1 X91.224 Y63.384 E0.00881
G1 X91.978 Y63.384 E0.02365
G1 X91.978 Y63.495 E0.00349
G1 X92.732 Y63.495 E0.02365
G1 X92.732 Y63.384 E0.00349
G1 X93.486 Y63.384 E0.02365
G1 X93.486 Y63.495 E0.00349
G1 X94.241 Y63.495 E0.02365
G1 X94.241 Y63.384 E0.00349
G1 X94.995 Y63.384 E0.02365
