; generated by PrusaSlicer 2.3.1+linux-x64 on 2021-05-28 at 14:29:50 UTC


;
;

;
;
; 

; external perimeters extrusion width = 0.45mm
; perimeters extrusion width = 0.45mm
; infill extrusion width = 0.45mm
; solid infill extrusion width = 0.45mm
; top infill extrusion width = 0.40mm
; first layer extrusion width = 0.42mm

M73 P0 R227
M201 X1250 Y1250 Z400 E5000 ; sets maximum accelerations, mm/sec^2
M203 X180 Y180 Z12 E80 ; sets maximum feedrates, mm/sec
M204 P1250 R1250 T1250 ; sets acceleration (P, T) and retract acceleration (R), mm/sec^2
M205 X8.00 Y8.00 Z2.00 E10.00 ; sets the jerk limits, mm/sec
M205 S0 T0 ; sets the minimum extruding and travel feed rate, mm/sec
M107
;TYPE:Custom
G90 ; use absolute coordinates
M83 ; extruder relative mode
M104 S170 ; set extruder temp for bed leveling
M140 S100 ; set bed temp
M109 R170 ; wait for bed leveling temp
M190 S100 ; wait for bed temp
G28 ; home all without mesh bed level
G29 ; mesh bed leveling 
M104 S255 ; set extruder temp
G92 E0.0
G1 Y-2.0 X179 F2400
G1 Z3 F720
M109 S255 ; wait for extruder temp

; intro line
G1 X170 F1000
G1 Z0.2 F720
G1 X110.0 E8.0 F900
G1 X40.0 E10.0 F700
G92 E0.0

M221 S95 ; set flow
G21 ; set units to millimeters
G90 ; use absolute coordinates
M83 ; use relative distances for extrusion
M900 K0.2 ; Filament gcode
;LAYER_CHANGE
;Z:0.2
;HEIGHT:0.2
;BEFORE_LAYER_CHANGE
G92 E0.0
;0.2


G1 E-2.70000 F4200.000
G1 Z0.200 F9000.000
;AFTER_LAYER_CHANGE
;0.2
G1 Z0.400
G1 X61.779 Y62.036
G1 Z0.200
G1 E2.70000 F2400.000
M204 S800
;TYPE:Skirt
;WIDTH:0.42
G1 F1200.000
G1 X62.431 Y61.456 E0.02734
G1 X63.189 Y61.015 E0.02750
G1 X64.015 Y60.735 E0.02734
G1 X64.885 Y60.624 E0.02750
G1 X115.005 Y60.623 E1.57148
G1 X115.827 Y60.702 E0.02589
G1 X116.625 Y60.936 E0.02605
G1 X117.359 Y61.313 E0.02589
G1 X118.009 Y61.822 E0.02589
G1 X118.553 Y62.443 E0.02589
G1 X118.970 Y63.156 E0.02589
G1 X119.247 Y63.940 E0.02605
G1 X119.370 Y64.756 E0.02589
G1 X119.376 Y115.093 E1.57828
G1 X119.288 Y115.878 E0.02476
G1 X119.061 Y116.634 E0.02476
G1 X118.701 Y117.337 E0.02476
G1 X118.221 Y117.964 E0.02476
G1 X117.548 Y118.559 E0.02815
G1 X116.768 Y119.004 E0.02815
G1 X115.914 Y119.281 E0.02815
G1 X115.022 Y119.377 E0.02815
G1 X64.907 Y119.376 E1.57131
G1 X64.122 Y119.288 E0.02476
G1 X63.366 Y119.061 E0.02476
G1 X62.663 Y118.701 E0.02476
G1 X62.036 Y118.221 E0.02476
G1 X61.441 Y117.548 E0.02815
G1 X60.996 Y116.768 E0.02815
G1 X60.719 Y115.914 E0.02815
G1 X60.623 Y115.022 E0.02815
G1 X60.624 Y64.907 E1.57131
G1 X60.712 Y64.122 E0.02476
G1 X60.939 Y63.366 E0.02476
G1 X61.299 Y62.663 E0.02476
G1 X61.743 Y62.084 E0.02288
M204 S1250
; printing object minicube_abs_test.stl id:0 copy 0
G1 E-2.70000 F4200.000
G1 Z0.400 F9000.000
G1 X83.082 Y83.082
G1 Z0.200
G1 E2.70000 F2400.000
M204 S800
;TYPE:Perimeter
G1 F1200.000
G1 X96.918 Y83.082 E0.43384
G1 X96.918 Y96.918 E0.43384
G1 X83.082 Y96.918 E0.43384
G1 X83.082 Y83.142 E0.43196
M204 S1250
G1 X83.459 Y83.459 F9000.000
M204 S800
G1 F1200.000
G1 X96.541 Y83.459 E0.41019
G1 X96.541 Y96.541 E0.41019
G1 X83.459 Y96.541 E0.41019
G1 X83.459 Y83.519 E0.40831
M204 S1250
G1 X83.836 Y83.836 F9000.000
M204 S800
G1 F1200.000
G1 X96.164 Y83.836 E0.38655
G1 X96.164 Y96.164 E0.38655
G1 X83.836 Y96.164 E0.38655
G1 X83.836 Y83.896 E0.38466
M204 S1250
G1 X84.213 Y84.213 F9000.000
M204 S800
G1 F1200.000
G1 X95.787 Y84.213 E0.36290
G1 X95.787 Y95.787 E0.36290
G1 X84.213 Y95.787 E0.36290
G1 X84.213 Y84.273 E0.36102
M204 S1250
G1 X84.590 Y84.590 F9000.000
M204 S800
;TYPE:External perimeter
G1 F1200.000
G1 X95.410 Y84.590 E0.33925
G1 X95.410 Y95.410 E0.33925
G1 X84.590 Y95.410 E0.33925
G1 X84.590 Y84.650 E0.33737
M204 S1250
G1 X84.486 Y84.204 F9000.000
G1 E-2.70000 F4200.000
G1 Z0.400 F9000.000
G1 X66.918 Y66.918
G1 Z0.200
G1 E2.70000 F2400.000
M204 S800
;TYPE:Perimeter
G1 F1200.000
G1 X113.082 Y66.918 E1.44742
G1 X113.082 Y113.082 E1.44742
G1 X66.918 Y113.082 E1.44742
M73 P0 R226
G1 X66.918 Y66.978 E1.44554
M204 S1250
G1 X66.541 Y66.541 F9000.000
M204 S800
G1 F1200.000
G1 X113.459 Y66.541 E1.47107
G1 X113.459 Y113.459 E1.47107
G1 X66.541 Y113.459 E1.47107
G1 X66.541 Y66.601 E1.46918
M204 S1250
G1 X66.164 Y66.164 F9000.000
M204 S800
G1 F1200.000
G1 X113.836 Y66.164 E1.49471
G1 X113.836 Y113.836 E1.49471
G1 X66.164 Y113.836 E1.49471
G1 X66.164 Y66.224 E1.49283
M204 S1250
G1 X65.787 Y65.787 F9000.000
M204 S800
G1 F1200.000
G1 X114.213 Y65.787 E1.51836
G1 X114.213 Y114.213 E1.51836
G1 X65.787 Y114.213 E1.51836
G1 X65.787 Y65.847 E1.51648
M204 S1250
G1 X65.410 Y65.410 F9000.000
M204 S800
;TYPE:External perimeter
G1 F1200.000
G1 X114.590 Y65.410 E1.54200
G1 X114.590 Y114.590 E1.54200
G1 X65.410 Y114.590 E1.54200
G1 X65.410 Y65.470 E1.54012
M204 S1250
G1 X65.796 Y65.514 F9000.000
G1 E-2.70000 F4200.000
G1 Z0.400 F9000.000
G1 X112.969 Y67.796
G1 Z0.200
G1 E2.70000 F2400.000
M204 S800
;TYPE:Solid infill
;WIDTH:0.420933
G1 F1200.000
G1 X112.374 Y67.201 E0.02643
G1 X111.839 Y67.201 E0.01680
G1 X112.799 Y68.161 E0.04265
G1 X112.799 Y68.695 E0.01680
G1 X111.305 Y67.201 E0.06641
G1 X110.770 Y67.201 E0.01680
G1 X112.799 Y69.230 E0.09018
G1 X112.799 Y69.764 E0.01680
G1 X110.236 Y67.201 E0.11394
G1 X109.701 Y67.201 E0.01680
G1 X112.799 Y70.299 E0.13770
G1 X112.799 Y70.834 E0.01680
G1 X109.166 Y67.201 E0.16147
G1 X108.632 Y67.201 E0.01680
G1 X112.799 Y71.368 E0.18523
G1 X112.799 Y71.903 E0.01680
G1 X108.097 Y67.201 E0.20899
G1 X107.563 Y67.201 E0.01680
G1 X112.799 Y72.437 E0.23276
G1 X112.799 Y72.972 E0.01680
G1 X107.028 Y67.201 E0.25652
G1 X106.494 Y67.201 E0.01680
G1 X112.799 Y73.506 E0.28028
G1 X112.799 Y74.041 E0.01680
G1 X105.959 Y67.201 E0.30405
G1 X105.424 Y67.201 E0.01680
G1 X112.799 Y74.576 E0.32781
G1 X112.799 Y75.110 E0.01680
G1 X104.890 Y67.201 E0.35157
G1 X104.355 Y67.201 E0.01680
G1 X112.799 Y75.645 E0.37534
G1 X112.799 Y76.179 E0.01680
G1 X103.821 Y67.201 E0.39910
G1 X103.286 Y67.201 E0.01680
G1 X112.799 Y76.714 E0.42286
G1 X112.799 Y77.249 E0.01680
G1 X102.751 Y67.201 E0.44663
G1 X102.217 Y67.201 E0.01680
G1 X112.799 Y77.783 E0.47039
G1 X112.799 Y78.318 E0.01680
G1 X101.682 Y67.201 E0.49415
G1 X101.148 Y67.201 E0.01680
G1 X112.799 Y78.852 E0.51792
G1 X112.799 Y79.387 E0.01680
G1 X100.613 Y67.201 E0.54168
G1 X100.078 Y67.201 E0.01680
G1 X112.799 Y79.922 E0.56544
G1 X112.799 Y80.456 E0.01680
G1 X99.544 Y67.201 E0.58921
G1 X99.009 Y67.201 E0.01680
G1 X112.799 Y80.991 E0.61297
G1 X112.799 Y81.525 E0.01680
G1 X98.475 Y67.201 E0.63673
G1 X97.940 Y67.201 E0.01680
G1 X112.799 Y82.060 E0.66050
M73 P0 R225
G1 X112.799 Y82.595 E0.01680
G1 X97.405 Y67.201 E0.68426
G1 X96.871 Y67.201 E0.01680
G1 X112.799 Y83.129 E0.70802
G1 X112.799 Y83.664 E0.01680
G1 X96.336 Y67.201 E0.73179
G1 X95.802 Y67.201 E0.01680
G1 X112.799 Y84.198 E0.75555
G1 X112.799 Y84.733 E0.01680
G1 X95.267 Y67.201 E0.77931
G1 X94.732 Y67.201 E0.01680
G1 X112.799 Y85.267 E0.80308
G1 X112.799 Y85.802 E0.01680
G1 X94.198 Y67.201 E0.82684
G1 X93.663 Y67.201 E0.01680
G1 X112.799 Y86.337 E0.85060
G1 X112.799 Y86.871 E0.01680
G1 X93.129 Y67.201 E0.87437
G1 X92.594 Y67.201 E0.01680
G1 X112.799 Y87.406 E0.89813
G1 X112.799 Y87.940 E0.01680
G1 X92.060 Y67.201 E0.92189
G1 X91.525 Y67.201 E0.01680
G1 X112.799 Y88.475 E0.94566
G1 X112.799 Y89.010 E0.01680
G1 X90.990 Y67.201 E0.96942
G1 X90.456 Y67.201 E0.01680
G1 X112.799 Y89.544 E0.99318
G1 X112.799 Y90.079 E0.01680
G1 X89.921 Y67.201 E1.01695
G1 X89.387 Y67.201 E0.01680
G1 X112.799 Y90.613 E1.04071
G1 X112.799 Y91.148 E0.01680
G1 X88.852 Y67.201 E1.06447
G1 X88.317 Y67.201 E0.01680
G1 X112.799 Y91.683 E1.08824
G1 X112.799 Y92.217 E0.01680
G1 X87.783 Y67.201 E1.11200
G1 X87.248 Y67.201 E0.01680
G1 X112.799 Y92.752 E1.13576
G1 X112.799 Y93.286 E0.01680
G1 X86.714 Y67.201 E1.15953
M73 P1 R225
G1 X86.179 Y67.201 E0.01680
G1 X112.799 Y93.821 E1.18329
G1 X112.799 Y94.356 E0.01680
G1 X85.644 Y67.201 E1.20705
G1 X85.110 Y67.201 E0.01680
G1 X112.799 Y94.890 E1.23082
G1 X112.799 Y95.425 E0.01680
G1 X84.575 Y67.201 E1.25458
G1 X84.041 Y67.201 E0.01680
G1 X112.799 Y95.959 E1.27834
G1 X112.799 Y96.494 E0.01680
G1 X83.506 Y67.201 E1.30211
G1 X82.971 Y67.201 E0.01680
G1 X112.799 Y97.029 E1.32587
G1 X112.799 Y97.563 E0.01680
G1 X82.437 Y67.201 E1.34963
G1 X81.902 Y67.201 E0.01680
G1 X112.799 Y98.098 E1.37340
G1 X112.799 Y98.632 E0.01680
G1 X81.368 Y67.201 E1.39716
G1 X80.833 Y67.201 E0.01680
G1 X96.431 Y82.799 E0.69334
G1 X95.896 Y82.799 E0.01680
G1 X80.299 Y67.201 E0.69334
G1 X79.764 Y67.201 E0.01680
G1 X95.362 Y82.799 E0.69334
G1 X94.827 Y82.799 E0.01680
G1 X79.229 Y67.201 E0.69334
G1 X78.695 Y67.201 E0.01680
G1 X94.293 Y82.799 E0.69334
G1 X93.758 Y82.799 E0.01680
G1 X78.160 Y67.201 E0.69334
G1 X77.626 Y67.201 E0.01680
G1 X93.223 Y82.799 E0.69334
M73 P1 R224
G1 X92.689 Y82.799 E0.01680
G1 X77.091 Y67.201 E0.69334
G1 X76.556 Y67.201 E0.01680
G1 X92.154 Y82.799 E0.69334
G1 X91.620 Y82.799 E0.01680
G1 X76.022 Y67.201 E0.69334
G1 X75.487 Y67.201 E0.01680
G1 X91.085 Y82.799 E0.69334
G1 X90.550 Y82.799 E0.01680
G1 X74.953 Y67.201 E0.69334
G1 X74.418 Y67.201 E0.01680
G1 X90.016 Y82.799 E0.69334
G1 X89.481 Y82.799 E0.01680
G1 X73.883 Y67.201 E0.69334
G1 X73.349 Y67.201 E0.01680
G1 X88.947 Y82.799 E0.69334
G1 X88.412 Y82.799 E0.01680
G1 X72.814 Y67.201 E0.69334
G1 X72.280 Y67.201 E0.01680
G1 X87.877 Y82.799 E0.69334
G1 X87.343 Y82.799 E0.01680
G1 X71.745 Y67.201 E0.69334
G1 X71.210 Y67.201 E0.01680
G1 X86.808 Y82.799 E0.69334
G1 X86.274 Y82.799 E0.01680
G1 X70.676 Y67.201 E0.69334
G1 X70.141 Y67.201 E0.01680
G1 X85.739 Y82.799 E0.69334
G1 X85.204 Y82.799 E0.01680
G1 X69.607 Y67.201 E0.69334
G1 X69.072 Y67.201 E0.01680
G1 X84.670 Y82.799 E0.69334
G1 X84.135 Y82.799 E0.01680
G1 X68.538 Y67.201 E0.69334
G1 X68.003 Y67.201 E0.01680
G1 X83.601 Y82.799 E0.69334
G1 X83.066 Y82.799 E0.01680
G1 X67.468 Y67.201 E0.69334
G1 X67.201 Y67.201 E0.00840
G1 X67.201 Y67.468 E0.00840
G1 X82.799 Y83.066 E0.69334
G1 X82.799 Y83.601 E0.01680
G1 X67.201 Y68.003 E0.69334
G1 X67.201 Y68.538 E0.01680
G1 X82.799 Y84.135 E0.69334
G1 X82.799 Y84.670 E0.01680
G1 X67.201 Y69.072 E0.69334
G1 X67.201 Y69.607 E0.01680
G1 X82.799 Y85.205 E0.69334
G1 X82.799 Y85.739 E0.01680
G1 X67.201 Y70.141 E0.69334
G1 X67.201 Y70.676 E0.01680
G1 X82.799 Y86.274 E0.69334
G1 X82.799 Y86.808 E0.01680
G1 X67.201 Y71.211 E0.69334
G1 X67.201 Y71.745 E0.01680
G1 X82.799 Y87.343 E0.69334
G1 X82.799 Y87.878 E0.01680
G1 X67.201 Y72.280 E0.69334
G1 X67.201 Y72.814 E0.01680
G1 X82.799 Y88.412 E0.69334
G1 X82.799 Y88.947 E0.01680
G1 X67.201 Y73.349 E0.69334
G1 X67.201 Y73.884 E0.01680
G1 X82.799 Y89.481 E0.69334
G1 X82.799 Y90.016 E0.01680
G1 X67.201 Y74.418 E0.69334
G1 X67.201 Y74.953 E0.01680
G1 X82.799 Y90.551 E0.69334
G1 X82.799 Y91.085 E0.01680
G1 X67.201 Y75.487 E0.69334
G1 X67.201 Y76.022 E0.01680
G1 X82.799 Y91.620 E0.69334
G1 X82.799 Y92.154 E0.01680
G1 X67.201 Y76.557 E0.69334
G1 X67.201 Y77.091 E0.01680
G1 X82.799 Y92.689 E0.69334
G1 X82.799 Y93.223 E0.01680
G1 X67.201 Y77.626 E0.69334
G1 X67.201 Y78.160 E0.01680
G1 X82.799 Y93.758 E0.69334
G1 X82.799 Y94.293 E0.01680
G1 X67.201 Y78.695 E0.69334
G1 X67.201 Y79.229 E0.01680
G1 X82.799 Y94.827 E0.69334
G1 X82.799 Y95.362 E0.01680
G1 X67.201 Y79.764 E0.69334
G1 X67.201 Y80.299 E0.01680
G1 X82.799 Y95.896 E0.69334
G1 X82.799 Y96.431 E0.01680
G1 X67.031 Y80.664 E0.70089
M204 S1250
G1 E-2.70000 F4200.000
G1 Z0.400 F9000.000
G1 X112.969 Y99.337
G1 Z0.200
G1 E2.70000 F2400.000
M204 S800
G1 F1200.000
G1 X97.201 Y83.569 E0.70089
G1 X97.201 Y84.104 E0.01680
G1 X112.799 Y99.701 E0.69334
G1 X112.799 Y100.236 E0.01680
G1 X97.201 Y84.638 E0.69334
G1 X97.201 Y85.173 E0.01680
G1 X112.799 Y100.771 E0.69334
G1 X112.799 Y101.305 E0.01680
G1 X97.201 Y85.707 E0.69334
G1 X97.201 Y86.242 E0.01680
G1 X112.799 Y101.840 E0.69334
G1 X112.799 Y102.374 E0.01680
G1 X97.201 Y86.777 E0.69334
M73 P1 R223
G1 X97.201 Y87.311 E0.01680
G1 X112.799 Y102.909 E0.69334
G1 X112.799 Y103.444 E0.01680
G1 X97.201 Y87.846 E0.69334
G1 X97.201 Y88.380 E0.01680
G1 X112.799 Y103.978 E0.69334
G1 X112.799 Y104.513 E0.01680
G1 X97.201 Y88.915 E0.69334
G1 X97.201 Y89.450 E0.01680
G1 X112.799 Y105.047 E0.69334
G1 X112.799 Y105.582 E0.01680
G1 X97.201 Y89.984 E0.69334
G1 X97.201 Y90.519 E0.01680
G1 X112.799 Y106.117 E0.69334
G1 X112.799 Y106.651 E0.01680
G1 X97.201 Y91.053 E0.69334
G1 X97.201 Y91.588 E0.01680
G1 X112.799 Y107.186 E0.69334
G1 X112.799 Y107.720 E0.01680
G1 X97.201 Y92.123 E0.69334
G1 X97.201 Y92.657 E0.01680
G1 X112.799 Y108.255 E0.69334
G1 X112.799 Y108.790 E0.01680
G1 X97.201 Y93.192 E0.69334
G1 X97.201 Y93.726 E0.01680
G1 X112.799 Y109.324 E0.69334
G1 X112.799 Y109.859 E0.01680
G1 X97.201 Y94.261 E0.69334
G1 X97.201 Y94.796 E0.01680
G1 X112.799 Y110.393 E0.69334
G1 X112.799 Y110.928 E0.01680
G1 X97.201 Y95.330 E0.69334
G1 X97.201 Y95.865 E0.01680
G1 X112.799 Y111.462 E0.69334
G1 X112.799 Y111.997 E0.01680
G1 X97.201 Y96.399 E0.69334
G1 X97.201 Y96.934 E0.01680
G1 X112.799 Y112.532 E0.69334
G1 X112.799 Y112.799 E0.00840
G1 X112.532 Y112.799 E0.00840
G1 X96.934 Y97.201 E0.69334
G1 X96.399 Y97.201 E0.01680
G1 X111.997 Y112.799 E0.69334
G1 X111.462 Y112.799 E0.01680
G1 X95.865 Y97.201 E0.69334
G1 X95.330 Y97.201 E0.01680
G1 X110.928 Y112.799 E0.69334
G1 X110.393 Y112.799 E0.01680
G1 X94.795 Y97.201 E0.69334
G1 X94.261 Y97.201 E0.01680
G1 X109.859 Y112.799 E0.69334
G1 X109.324 Y112.799 E0.01680
G1 X93.726 Y97.201 E0.69334
G1 X93.192 Y97.201 E0.01680
G1 X108.789 Y112.799 E0.69334
G1 X108.255 Y112.799 E0.01680
G1 X92.657 Y97.201 E0.69334
G1 X92.122 Y97.201 E0.01680
G1 X107.720 Y112.799 E0.69334
G1 X107.186 Y112.799 E0.01680
G1 X91.588 Y97.201 E0.69334
G1 X91.053 Y97.201 E0.01680
G1 X106.651 Y112.799 E0.69334
G1 X106.116 Y112.799 E0.01680
G1 X90.519 Y97.201 E0.69334
G1 X89.984 Y97.201 E0.01680
G1 X105.582 Y112.799 E0.69334
G1 X105.047 Y112.799 E0.01680
G1 X89.449 Y97.201 E0.69334
G1 X88.915 Y97.201 E0.01680
G1 X104.513 Y112.799 E0.69334
G1 X103.978 Y112.799 E0.01680
G1 X88.380 Y97.201 E0.69334
G1 X87.846 Y97.201 E0.01680
G1 X103.443 Y112.799 E0.69334
G1 X102.909 Y112.799 E0.01680
G1 X87.311 Y97.201 E0.69334
G1 X86.777 Y97.201 E0.01680
G1 X102.374 Y112.799 E0.69334
G1 X101.840 Y112.799 E0.01680
G1 X86.242 Y97.201 E0.69334
G1 X85.707 Y97.201 E0.01680
G1 X101.305 Y112.799 E0.69334
M73 P2 R223
G1 X100.771 Y112.799 E0.01680
G1 X85.173 Y97.201 E0.69334
G1 X84.638 Y97.201 E0.01680
G1 X100.236 Y112.799 E0.69334
G1 X99.701 Y112.799 E0.01680
G1 X84.104 Y97.201 E0.69334
G1 X83.569 Y97.201 E0.01680
G1 X99.167 Y112.799 E0.69334
G1 X98.632 Y112.799 E0.01680
G1 X67.201 Y81.368 E1.39716
G1 X67.201 Y81.902 E0.01680
G1 X98.098 Y112.799 E1.37339
G1 X97.563 Y112.799 E0.01680
G1 X67.201 Y82.437 E1.34963
G1 X67.201 Y82.972 E0.01680
G1 X97.028 Y112.799 E1.32587
M73 P2 R222
G1 X96.494 Y112.799 E0.01680
G1 X67.201 Y83.506 E1.30210
G1 X67.201 Y84.041 E0.01680
G1 X95.959 Y112.799 E1.27834
G1 X95.425 Y112.799 E0.01680
G1 X67.201 Y84.575 E1.25458
G1 X67.201 Y85.110 E0.01680
G1 X94.890 Y112.799 E1.23081
G1 X94.355 Y112.799 E0.01680
G1 X67.201 Y85.645 E1.20705
G1 X67.201 Y86.179 E0.01680
G1 X93.821 Y112.799 E1.18329
G1 X93.286 Y112.799 E0.01680
G1 X67.201 Y86.714 E1.15952
G1 X67.201 Y87.248 E0.01680
G1 X92.752 Y112.799 E1.13576
G1 X92.217 Y112.799 E0.01680
G1 X67.201 Y87.783 E1.11200
G1 X67.201 Y88.318 E0.01680
G1 X91.682 Y112.799 E1.08823
G1 X91.148 Y112.799 E0.01680
G1 X67.201 Y88.852 E1.06447
G1 X67.201 Y89.387 E0.01680
G1 X90.613 Y112.799 E1.04071
G1 X90.079 Y112.799 E0.01680
G1 X67.201 Y89.921 E1.01694
G1 X67.201 Y90.456 E0.01680
G1 X89.544 Y112.799 E0.99318
G1 X89.010 Y112.799 E0.01680
G1 X67.201 Y90.990 E0.96942
G1 X67.201 Y91.525 E0.01680
G1 X88.475 Y112.799 E0.94565
G1 X87.940 Y112.799 E0.01680
G1 X67.201 Y92.060 E0.92189
G1 X67.201 Y92.594 E0.01680
G1 X87.406 Y112.799 E0.89813
G1 X86.871 Y112.799 E0.01680
G1 X67.201 Y93.129 E0.87436
G1 X67.201 Y93.663 E0.01680
G1 X86.337 Y112.799 E0.85060
G1 X85.802 Y112.799 E0.01680
G1 X67.201 Y94.198 E0.82684
G1 X67.201 Y94.733 E0.01680
G1 X85.267 Y112.799 E0.80307
G1 X84.733 Y112.799 E0.01680
G1 X67.201 Y95.267 E0.77931
G1 X67.201 Y95.802 E0.01680
G1 X84.198 Y112.799 E0.75554
